(1001)
(Machine)
(  vendor: Autodesk)
(  description: Generic Cutting Machine)
N10 G90
N15 G21

(2D Profile1)
N20 M36 T1
(Through cutting)

N25 G0 X34.016 Y43.51
(TURN ON CUTTING)
N30 M7
(POINT-PIERCE)
N35 G41
N40 G1 X33.583 Y43.26 F600
N45 X35.083 Y40.662
N50 G3 X38.114 Y38.912 I3.031 J1.75
N55 G1 X56.312
N60 X56.303 Y31.74
N65 X56.263 Y29.646
N70 X56.178 Y27.559
N75 X56.029 Y25.478
N80 X55.926 Y24.441
N85 X55.736 Y22.89
N90 X64.706
N95 Y92.89
N100 X84.274
N105 X97.393 Y52.365
N110 Y92.89
N115 X116.96
N120 Y87.89
N125 X132.861
N130 X133.584 Y88.559
N135 X134.084 Y88.981
N140 X134.601 Y89.381
N145 X135.135 Y89.76
N150 X135.684 Y90.119
N155 X136.817 Y90.791
N160 X137.987 Y91.418
N165 X139.474 Y92.167
N170 X141.657 Y92.95
N175 X142.754 Y93.315
N180 X143.856 Y93.649
N185 X144.967 Y93.942
N190 X146.088 Y94.184
N195 X147.22 Y94.37
N200 X148.361 Y94.509
N205 X149.51 Y94.61
N210 X151.823 Y94.736
N215 X152.983 Y94.78
N220 X155.96 Y94.656
N225 X157.439 Y94.556
N230 X158.908 Y94.411
N235 X160.362 Y94.207
N240 X161.082 Y94.078
N245 X161.797 Y93.929
N250 X162.507 Y93.757
N255 X163.211 Y93.562
N260 X164.604 Y93.108
N265 X165.98 Y92.586
N270 X167.343 Y92.012
N275 X170.049 Y90.778
N280 X171.951 Y89.481
N285 X172.872 Y88.807
N290 X173.758 Y88.102
N295 X174.596 Y87.356
N300 X174.993 Y86.964
N305 X175.374 Y86.558
N310 X175.737 Y86.137
N315 X176.082 Y85.7
N320 X176.723 Y84.783
N325 X177.311 Y83.821
N330 X177.859 Y82.824
N335 X178.888 Y80.771
N340 X179.608 Y77.724
N345 X179.938 Y76.196
N350 X180.232 Y74.664
N355 X180.476 Y73.125
N360 X180.663 Y71.58
N365 X180.799 Y70.027
N370 X180.891 Y68.469
N375 X180.948 Y66.907
N380 X180.994 Y63.773
N385 X181 Y53.644
N390 X157.597
N395 X157.611 Y71.826
N400 X157.56 Y73.251
N405 X157.506 Y73.96
N410 X157.429 Y74.667
N415 X157.325 Y75.372
N420 X157.053 Y76.775
N425 X156.818 Y77.825
N430 X156.419 Y78.372
N435 X156.105 Y78.735
N440 X155.851 Y78.966
N445 X155.626 Y79.123
N450 X155.317 Y79.276
N455 X154.879 Y79.409
N460 X154.397 Y79.487
N465 X153.539 Y79.549
N470 X152.571 Y79.471
N475 X152.18 Y79.409
N480 X151.662 Y79.27
N485 X151.481 Y79.197
N490 X151.204 Y79.051
N495 X150.893 Y78.818
N500 X150.529 Y78.436
N505 X150.193 Y77.983
N510 X149.87 Y77.492
N515 X149.646 Y76.395
N520 X149.384 Y74.928
N525 X149.28 Y74.191
N530 X149.201 Y73.452
N535 X149.11 Y71.964
N540 X149.081 Y70.471
N545 X149.085 Y24.633
N550 X149.127 Y23.198
N555 X149.173 Y22.482
N560 X149.239 Y21.77
N565 X149.33 Y21.059
N570 X149.576 Y19.644
N575 X149.87 Y18.233
N580 X150.382 Y17.473
N585 X150.621 Y17.18
N590 X150.987 Y16.836
N595 X151.142 Y16.728
N600 X151.404 Y16.586
N605 X151.754 Y16.455
N610 X152.259 Y16.341
N615 X152.804 Y16.274
N620 X153.372 Y16.232
N625 X154.274 Y16.32
N630 X154.639 Y16.385
N635 X155.119 Y16.526
N640 X155.288 Y16.6
N645 X155.541 Y16.743
N650 X155.828 Y16.97
N655 X156.161 Y17.336
N660 X156.468 Y17.765
N665 X156.763 Y18.233
N670 X157.007 Y19.389
N675 X157.294 Y20.937
N680 X157.405 Y21.715
N685 X157.489 Y22.497
N690 X157.548 Y23.281
N695 X157.606 Y24.858
N700 X157.597 Y38.912
N705 X181
N710 X180.999 Y32.908
N715 X180.985 Y31.241
N720 X180.949 Y29.576
N725 X180.884 Y27.915
N730 X180.781 Y26.259
N735 X180.632 Y24.608
N740 X180.428 Y22.963
N745 X180.169 Y21.324
N750 X179.866 Y19.691
N755 X178.999 Y15.62
N760 X177.984 Y13.55
N765 X177.442 Y12.543
N770 X176.861 Y11.569
N775 X176.226 Y10.64
N780 X175.885 Y10.195
N785 X175.525 Y9.766
N790 X175.148 Y9.351
N795 X174.348 Y8.559
N800 X173.496 Y7.81
N805 X172.603 Y7.095
N810 X171.682 Y6.404
N815 X170.271 Y5.392
N820 X167.664 Y4.061
N825 X166.349 Y3.44
N830 X165.018 Y2.874
N835 X164.346 Y2.617
N840 X163.668 Y2.379
N845 X162.984 Y2.165
N850 X162.294 Y1.975
N855 X161.597 Y1.809
N860 X160.893 Y1.665
N865 X159.471 Y1.435
N870 X158.031 Y1.27
N875 X156.578 Y1.153
N880 X153.65 Y1
N885 X150.707 Y1.112
N890 X149.244 Y1.204
N895 X147.79 Y1.336
N900 X146.349 Y1.525
N905 X144.924 Y1.784
N910 X144.219 Y1.943
N915 X143.518 Y2.125
N920 X142.131 Y2.547
N925 X140.759 Y3.034
N930 X139.398 Y3.571
N935 X136.695 Y4.725
N940 X134.743 Y6.031
N945 X133.801 Y6.714
N950 X132.899 Y7.431
N955 X132.052 Y8.194
N960 X131.653 Y8.596
N965 X131.273 Y9.014
N970 X130.912 Y9.449
N975 X130.572 Y9.901
N980 X130.249 Y10.369
N985 X129.651 Y11.343
N990 X129.102 Y12.36
N995 X128.589 Y13.407
N1000 X127.856 Y15.009
N1005 X127.126 Y18.272
N1010 X126.791 Y19.907
N1015 X126.492 Y21.546
N1020 X126.242 Y23.192
N1025 X126.048 Y24.844
N1030 X125.908 Y26.503
N1035 X125.811 Y28.167
N1040 X125.75 Y29.835
N1045 X125.697 Y33.18
N1050 X125.695 Y63.598
N1055 X125.716 Y65.558
N1060 X125.762 Y67.516
N1065 X125.845 Y69.472
N1070 X125.973 Y71.426
N1075 X126.091 Y72.89
N1080 X116.96
N1085 Y2.89
N1090 X96.448
N1095 X84.274 Y43.804
N1100 Y2.89
N1105 X64.706
N1110 Y7.89
N1115 X48.905
N1120 X47.83 Y7.029
N1125 X46.716 Y6.202
N1130 X45.583 Y5.392
N1135 X42.976 Y4.061
N1140 X41.661 Y3.44
N1145 X40.33 Y2.874
N1150 X39.658 Y2.617
N1155 X38.98 Y2.379
N1160 X38.296 Y2.165
N1165 X37.606 Y1.975
N1170 X36.909 Y1.809
N1175 X36.205 Y1.665
N1180 X34.783 Y1.435
N1185 X33.343 Y1.27
N1190 X31.89 Y1.153
N1195 X28.962 Y1
N1200 X26.019 Y1.112
N1205 X24.556 Y1.204
N1210 X23.102 Y1.336
N1215 X21.661 Y1.525
N1220 X20.236 Y1.784
N1225 X19.531 Y1.943
N1230 X18.83 Y2.125
N1235 X17.443 Y2.547
N1240 X16.071 Y3.034
N1245 X14.71 Y3.571
N1250 X12.007 Y4.725
N1255 X10.055 Y6.031
N1260 X9.113 Y6.714
N1265 X8.211 Y7.431
N1270 X7.364 Y8.194
N1275 X6.965 Y8.596
N1280 X6.585 Y9.014
N1285 X6.224 Y9.449
N1290 X5.884 Y9.901
N1295 X5.561 Y10.369
N1300 X4.962 Y11.343
N1305 X4.414 Y12.36
N1310 X3.901 Y13.407
N1315 X3.168 Y15.009
N1320 X2.438 Y18.272
N1325 X2.103 Y19.907
N1330 X1.804 Y21.546
N1335 X1.554 Y23.192
N1340 X1.36 Y24.844
N1345 X1.22 Y26.503
N1350 X1.123 Y28.167
N1355 X1.062 Y29.835
N1360 X1.009 Y33.18
N1365 X1.001 Y61.757
N1370 X1.011 Y64.189
N1375 X1.049 Y66.62
N1380 X1.135 Y69.049
N1385 X1.289 Y71.474
N1390 X1.667 Y75.713
N1395 X2.037 Y77.398
N1400 X2.244 Y78.232
N1405 X2.475 Y79.055
N1410 X2.741 Y79.864
N1415 X3.049 Y80.656
N1420 X3.404 Y81.428
N1425 X3.798 Y82.184
N1430 X4.224 Y82.926
N1435 X5.14 Y84.385
N1440 X5.614 Y85.107
N1445 X6.914 Y86.579
N1450 X7.58 Y87.293
N1455 X8.267 Y87.981
N1460 X8.981 Y88.634
N1465 X9.729 Y89.243
N1470 X10.514 Y89.805
N1475 X11.331 Y90.327
N1480 X12.172 Y90.815
N1485 X13.033 Y91.28
N1490 X14.786 Y92.167
N1495 X16.969 Y92.95
N1500 X18.066 Y93.315
N1505 X19.168 Y93.649
N1510 X20.279 Y93.942
N1515 X21.4 Y94.184
N1520 X22.532 Y94.37
N1525 X23.673 Y94.509
N1530 X24.822 Y94.61
N1535 X27.135 Y94.736
N1540 X28.295 Y94.78
N1545 X31.272 Y94.656
N1550 X32.751 Y94.556
N1555 X34.22 Y94.411
N1560 X35.674 Y94.207
N1565 X36.394 Y94.078
N1570 X37.109 Y93.929
N1575 X37.819 Y93.757
N1580 X38.523 Y93.562
N1585 X39.916 Y93.108
N1590 X41.292 Y92.586
N1595 X42.655 Y92.012
N1600 X45.361 Y90.778
N1605 X47.263 Y89.481
N1610 X48.184 Y88.807
N1615 X49.07 Y88.102
N1620 X49.908 Y87.356
N1625 X50.305 Y86.964
N1630 X50.686 Y86.558
N1635 X51.049 Y86.137
N1640 X51.394 Y85.7
N1645 X52.035 Y84.783
N1650 X52.623 Y83.821
N1655 X53.171 Y82.824
N1660 X54.2 Y80.771
N1665 X54.92 Y77.724
N1670 X55.25 Y76.196
N1675 X55.543 Y74.664
N1680 X55.788 Y73.125
N1685 X55.975 Y71.58
N1690 X56.111 Y70.027
N1695 X56.203 Y68.469
N1700 X56.26 Y66.907
N1705 X56.306 Y63.773
N1710 X56.312 Y53.644
N1715 X32.909
N1720 X32.923 Y71.826
N1725 X32.872 Y73.252
N1730 X32.818 Y73.961
N1735 X32.74 Y74.668
N1740 X32.636 Y75.372
N1745 X32.364 Y76.776
N1750 X32.13 Y77.825
N1755 X31.632 Y78.494
N1760 X31.401 Y78.751
N1765 X31.052 Y79.05
N1770 X30.905 Y79.143
N1775 X30.659 Y79.264
N1780 X30.334 Y79.374
N1785 X29.869 Y79.467
N1790 X29.37 Y79.519
N1795 X28.851 Y79.549
N1800 X27.882 Y79.471
N1805 X27.492 Y79.409
N1810 X26.974 Y79.27
N1815 X26.793 Y79.197
N1820 X26.516 Y79.051
N1825 X26.205 Y78.818
N1830 X25.84 Y78.436
N1835 X25.504 Y77.983
N1840 X25.182 Y77.492
N1845 X24.958 Y76.395
N1850 X24.695 Y74.929
N1855 X24.592 Y74.192
N1860 X24.514 Y73.452
N1865 X24.422 Y71.964
N1870 X24.393 Y70.47
N1875 X24.397 Y24.633
N1880 X24.439 Y23.198
N1885 X24.484 Y22.483
N1890 X24.551 Y21.77
N1895 X24.641 Y21.06
N1900 X24.888 Y19.644
N1905 X25.182 Y18.233
N1910 X25.694 Y17.473
N1915 X25.933 Y17.181
N1920 X26.157 Y16.956
N1925 X26.454 Y16.728
N1930 X26.716 Y16.586
N1935 X27.066 Y16.455
N1940 X27.571 Y16.341
N1945 X28.116 Y16.274
N1950 X28.684 Y16.232
N1955 X29.586 Y16.32
N1960 X29.951 Y16.385
N1965 X30.431 Y16.526
N1970 X30.6 Y16.6
N1975 X30.852 Y16.742
N1980 X31.139 Y16.97
N1985 X31.473 Y17.336
N1990 X31.78 Y17.766
N1995 X32.075 Y18.233
N2000 X32.319 Y19.39
N2005 X32.606 Y20.937
N2010 X32.717 Y21.715
N2015 X32.801 Y22.497
N2020 X32.86 Y23.282
N2025 X32.918 Y24.858
N2030 X32.909 Y38.912
N2035 X38.114
N2040 G3 X41.145 Y40.662 J3.5
N2045 G1 X42.645 Y43.26
N2050 G40
N2055 X42.212 Y43.51
(TURN OFF CUTTING)
N2060 M8

N2065 M19
N2070 M30
