(1009)
(Machine)
(  vendor: Autodesk)
(  description: Generic Cutting Machine)
N10 G90
N15 G21

(2D Profile2)
N20 M36 T1
(Through cutting)

N25 G0 X233.893 Y79.588
(TURN ON CUTTING)
N30 M7
(POINT-PIERCE)
N35 G41
N40 G1 X234.393 Y79.588 F600
N45 Y81.588
N50 G3 X232.893 Y83.088 I-1.5
N55 G1 X230.463
N60 Y64.125
N65 X246.707
N70 Y45.101
N75 X230.463
N80 Y23.112
N85 X249.548
N90 Y17.859
N95 X267.955
N100 Y83.088
N105 X252.575
N110 Y87.859
N115 X247.819
N120 Y83.088
N125 X232.893
N130 G3 X231.393 Y81.588 J-1.5
N135 G1 Y79.588
N140 G40
N145 X231.893 Y79.588
(TURN OFF CUTTING)
N150 M8
N155 G0 X200.959 Y83.359
(TURN ON CUTTING)
N160 M7
(POINT-PIERCE)
N165 G41
N170 G1 X200.959 Y82.859 F600
N175 X202.959
N180 G3 X204.459 Y84.359 J1.5
N185 G1 Y87.859
N190 X193.504
N195 X183.644 Y57.949
N200 X195.562 Y17.859
N205 X204.459
N210 Y84.359
N215 G3 X202.959 Y85.859 I-1.5
N220 G1 X200.959
N225 G40
N230 X200.959 Y85.359
(TURN OFF CUTTING)
N235 M8
N240 G0 X166.081 Y81.956
(TURN ON CUTTING)
N245 M7
(POINT-PIERCE)
N250 G41
N255 G1 X166.081 Y82.456 F600
N260 X164.081
N265 G3 X162.581 Y80.956 J-1.5
N270 G1 Y64.249
N275 X169.6 Y87.859
N280 X162.581
N285 Y80.956
N290 G3 X164.081 Y79.456 I1.5
N295 G1 X166.081
N300 G40
N305 X166.081 Y79.956
(TURN OFF CUTTING)
N310 M8
N315 G0 X164.719 Y21.359
(TURN ON CUTTING)
N320 M7
(POINT-PIERCE)
N325 G41
N330 G1 X164.219 Y21.359 F600
N335 Y19.359
N340 G3 X165.719 Y17.859 I1.5
N345 G1 X169.466
N350 X162.581 Y45.966
N355 Y17.859
N360 X165.719
N365 G3 X167.219 Y19.359 J1.5
N370 G1 Y21.359
N375 G40
N380 X166.719 Y21.359
(TURN OFF CUTTING)
N385 M8
N390 G0 X131.716 Y35.611
(TURN ON CUTTING)
N395 M7
(POINT-PIERCE)
N400 G41
N405 G1 X131.685 Y36.11 F600
N410 X129.689 Y35.987
N415 G3 X128.285 Y34.397 I0.093 J-1.497
N420 G1 X128.337 Y33.311
N425 X128.39 Y31.46
N430 X128.421 Y28.214
N435 X128.402 Y26.386
N440 X128.351 Y24.564
N445 X128.242 Y22.752
N450 X128.157 Y21.851
N455 X128.049 Y20.955
N460 X127.914 Y20.063
N465 X127.748 Y19.177
N470 X127.449 Y17.859
N475 X136.578
N480 Y87.859
N485 X125.509
N490 X125.677 Y86.954
N495 X125.825 Y86.045
N500 X125.945 Y85.131
N505 X126.041 Y84.214
N510 X126.172 Y82.369
N515 X126.238 Y80.514
N520 X126.261 Y78.653
N525 X126.263 Y72.835
N530 X102.112
N535 X102.116 Y82.22
N540 X102.05 Y83.332
N545 X101.983 Y83.897
N550 X101.833 Y84.711
N555 X101.621 Y85.516
N560 X101.185 Y86.855
N565 X100.832 Y87.229
N570 X100.553 Y87.496
N575 X100.071 Y87.859
N580 X96.142
N585 X95.843 Y87.687
N590 X95.476 Y87.408
N595 X95.144 Y87.088
N600 X94.515 Y86.361
N605 X94.221 Y85.67
N610 X93.787 Y84.501
N615 X93.598 Y83.792
N620 X93.504 Y83.293
N625 X93.441 Y82.813
N630 X93.397 Y82.316
N635 X93.353 Y81.313
N640 X93.341 Y80.555
N645 X93.355 Y79.584
N650 X93.405 Y78.295
N655 X93.532 Y77.01
N660 X93.702 Y76.074
N665 X93.946 Y75.152
N670 X94.359 Y73.93
N675 X94.7 Y73.02
N680 X95.464 Y72.084
N685 X95.986 Y71.473
N690 X96.532 Y70.873
N695 X97.087 Y70.318
N700 X97.692 Y69.778
N705 X98.63 Y69.046
N710 X99.62 Y68.368
N715 X100.998 Y67.519
N720 X105.061 Y65.133
N725 X107.053 Y63.933
N730 X109.022 Y62.704
N735 X110.958 Y61.436
N740 X112.853 Y60.115
N745 X113.782 Y59.432
N750 X114.697 Y58.732
N755 X115.597 Y58.013
N760 X116.48 Y57.273
N765 X117.348 Y56.514
N770 X118.201 Y55.737
N775 X119.87 Y54.138
N780 X121.503 Y52.493
N785 X123.915 Y49.981
N790 X124.687 Y48.298
N795 X125.433 Y46.61
N800 X126.129 Y44.909
N805 X126.45 Y44.053
N810 X126.75 Y43.191
N815 X127.025 Y42.323
N820 X127.271 Y41.449
N825 X127.487 Y40.568
N830 X127.673 Y39.68
N835 X127.831 Y38.785
N840 X127.965 Y37.884
N845 X128.076 Y36.978
N850 X128.238 Y35.152
N855 X128.285 Y34.397
N860 G3 X129.875 Y32.992 I1.497 J0.093
N865 G1 X131.871 Y33.116
N870 G40
N875 X131.84 Y33.615
(TURN OFF CUTTING)
N880 M8
N885 G0 X99.944 Y31.866
(TURN ON CUTTING)
N890 M7
(POINT-PIERCE)
N895 G41
N900 G1 X100.112 Y31.395 F600
N905 X101.996 Y32.067
N910 G3 X102.904 Y33.984 I-0.504 J1.413
N915 G1 X102.585 Y34.837
N920 X102.187 Y35.754
N925 X101.309 Y37.566
N930 X99.88 Y38.819
N935 X97.949 Y40.456
N940 X96.963 Y41.249
N945 X95.958 Y42.018
N950 X94.937 Y42.766
N955 X92.856 Y44.211
N960 X86.379 Y48.472
N965 X84.187 Y49.959
N970 X82.028 Y51.489
N975 X80.965 Y52.276
N980 X78.872 Y53.896
N985 X76.293 Y55.972
N990 X75.203 Y57.167
N995 X74.674 Y57.776
N1000 X74.165 Y58.397
N1005 X73.682 Y59.036
N1010 X73.231 Y59.696
N1015 X72.814 Y60.379
N1020 X72.425 Y61.081
N1025 X72.06 Y61.798
N1030 X71.043 Y64.002
N1035 X70.401 Y66.135
N1040 X70.104 Y67.205
N1045 X69.835 Y68.28
N1050 X69.602 Y69.36
N1055 X69.417 Y70.449
N1060 X69.277 Y71.545
N1065 X69.176 Y72.648
N1070 X69.106 Y73.756
N1075 X69.028 Y75.981
N1080 X69.005 Y77.096
N1085 X69.02 Y78.916
N1090 X69.058 Y80.732
N1095 X69.144 Y82.539
N1100 X69.212 Y83.437
N1105 X69.3 Y84.332
N1110 X69.412 Y85.222
N1115 X69.551 Y86.106
N1120 X69.719 Y86.985
N1125 X69.911 Y87.859
N1130 X54.103
N1135 X64.523 Y17.859
N1140 X71.337
N1145 X70.784 Y20.235
N1150 X70.547 Y21.429
N1155 X70.347 Y22.629
N1160 X70.188 Y23.834
N1165 X70.066 Y25.045
N1170 X69.975 Y26.26
N1175 X69.91 Y27.479
N1180 X69.838 Y29.925
N1185 X69.808 Y32.377
N1190 Y38.925
N1195 X93.959
N1200 X93.947 Y25.832
N1205 X93.956 Y24.604
N1210 X94.028 Y23.386
N1215 X94.1 Y22.771
N1220 X94.26 Y21.879
N1225 X94.331 Y21.578
N1230 X94.663 Y20.409
N1235 X94.947 Y19.53
N1240 X95.566 Y18.912
N1245 X95.84 Y18.677
N1250 X96.248 Y18.398
N1255 X96.409 Y18.313
N1260 X96.86 Y18.141
N1265 X97.35 Y18.032
N1270 X97.709 Y17.984
N1275 X98.591 Y17.924
N1280 X99.565 Y18.036
N1285 X100.114 Y18.149
N1290 X100.619 Y18.323
N1295 X100.966 Y18.505
N1300 X101.393 Y18.824
N1305 X101.79 Y19.214
N1310 X102.421 Y19.962
N1315 X102.741 Y20.68
N1320 X103.13 Y21.645
N1325 X103.297 Y22.148
N1330 X103.483 Y22.892
N1335 X103.601 Y23.653
N1340 X103.683 Y24.696
N1345 X103.713 Y25.752
N1350 X103.731 Y27.535
N1355 X103.722 Y28.544
N1360 X103.657 Y30.049
N1365 X103.615 Y30.551
N1370 X103.499 Y31.52
N1375 X103.32 Y32.506
N1380 X103.081 Y33.439
N1385 X102.904 Y33.984
N1390 G3 X100.987 Y34.892 I-1.413 J-0.504
N1395 G1 X99.104 Y34.22
N1400 G40
N1405 X99.272 Y33.749
(TURN OFF CUTTING)
N1410 M8
N1415 G0 X33.879 Y44.925
(TURN ON CUTTING)
N1420 M7
(POINT-PIERCE)
N1425 G41
N1430 G1 X33.932 Y44.427 F600
N1435 X35.921 Y44.638
N1440 G3 X37.254 Y46.288 I-0.158 J1.492
N1445 G1 X36.579 Y52.765
N1450 X35.896 Y59.753
N1455 X35.268 Y66.746
N1460 X34.105 Y80.743
N1465 X32.914 Y72.022
N1470 X31.996 Y65.044
N1475 X31.139 Y58.058
N1480 X30.743 Y54.561
N1485 X30.013 Y47.56
N1490 X29.166 Y38.801
N1495 X38.06
N1500 X37.254 Y46.288
N1505 G3 X35.604 Y47.622 I-1.492 J-0.158
N1510 G1 X33.616 Y47.411
N1515 G40
N1520 X33.668 Y46.913
(TURN OFF CUTTING)
N1525 M8
N1530 G0 X35.562 Y17.329
(TURN ON CUTTING)
N1535 M7
(POINT-PIERCE)
N1540 G41
N1545 G1 X35.598 Y16.83 F600
N1550 X37.593 Y16.974
N1555 G3 X38.981 Y18.578 I-0.108 J1.496
N1560 G1 X38.801 Y21.074
N1565 X29.474
N1570 X27.93 Y3.1
N1575 X1
N1580 X14.218 Y103.1
N1585 X51.834
N1590 X52.614 Y97.859
N1595 X74.982
N1600 X75.669 Y98.532
N1605 X76.151 Y98.952
N1610 X76.654 Y99.351
N1615 X77.173 Y99.729
N1620 X77.708 Y100.091
N1625 X78.816 Y100.77
N1630 X79.962 Y101.407
N1635 X81.42 Y102.174
N1640 X83.972 Y103.099
N1645 X85.254 Y103.53
N1650 X86.544 Y103.923
N1655 X87.843 Y104.265
N1660 X89.156 Y104.543
N1665 X90.482 Y104.755
N1670 X91.818 Y104.911
N1675 X93.164 Y105.023
N1680 X94.517 Y105.1
N1685 X97.232 Y105.2
N1690 X100.191 Y105.094
N1695 X101.665 Y105.01
N1700 X103.131 Y104.89
N1705 X104.587 Y104.722
N1710 X106.032 Y104.493
N1715 X107.463 Y104.192
N1720 X108.88 Y103.822
N1725 X110.286 Y103.397
N1730 X111.683 Y102.93
N1735 X114.465 Y101.926
N1740 X115.61 Y101.351
N1745 X116.739 Y100.757
N1750 X117.837 Y100.129
N1755 X118.368 Y99.796
N1760 X118.886 Y99.448
N1765 X119.388 Y99.082
N1770 X119.872 Y98.697
N1775 X120.336 Y98.29
N1780 X120.779 Y97.859
N1785 X136.578
N1790 Y103.1
N1795 X162.581
N1800 Y97.859
N1805 X172.573
N1810 X174.132 Y103.1
N1815 X198.529
N1820 X196.801 Y97.859
N1825 X204.459
N1830 Y103.1
N1835 X247.819
N1840 Y97.859
N1845 X252.575
N1850 Y103.1
N1855 X309.4
N1860 Y83.088
N1865 X293.959
N1870 Y3.1
N1875 X267.955
N1880 Y7.859
N1885 X249.548
N1890 Y3.1
N1895 X204.459
N1900 Y7.859
N1905 X198.535
N1910 X199.95 Y3.1
N1915 X173.082
N1920 X171.916 Y7.859
N1925 X162.581
N1930 Y3.1
N1935 X136.578
N1940 Y7.859
N1945 X121.804
N1950 X121.18 Y7.351
N1955 X120.305 Y6.719
N1960 X119.39 Y6.131
N1965 X118.445 Y5.577
N1970 X116.256 Y4.397
N1975 X113.572 Y3.376
N1980 X112.223 Y2.9
N1985 X110.865 Y2.464
N1990 X109.496 Y2.082
N1995 X108.112 Y1.768
N2000 X106.714 Y1.527
N2005 X105.303 Y1.347
N2010 X103.881 Y1.217
N2015 X102.451 Y1.124
N2020 X99.579 Y1
N2025 X96.485 Y1.137
N2030 X94.946 Y1.241
N2035 X93.417 Y1.39
N2040 X91.901 Y1.596
N2045 X91.149 Y1.725
N2050 X90.402 Y1.875
N2055 X89.66 Y2.046
N2060 X88.922 Y2.239
N2065 X87.461 Y2.684
N2070 X86.015 Y3.195
N2075 X84.58 Y3.754
N2080 X81.729 Y4.953
N2085 X80.218 Y5.873
N2090 X78.746 Y6.83
N2095 X78.037 Y7.333
N2100 X77.352 Y7.859
N2105 X66.011
N2110 X66.72 Y3.1
N2115 X40.098
N2120 X38.981 Y18.578
N2125 G3 X37.377 Y19.967 I-1.496 J-0.108
N2130 G1 X35.382 Y19.823
N2135 G40
N2140 X35.418 Y19.324
(TURN OFF CUTTING)
N2145 M8

N2150 M19
N2155 M30
