(1013)
(Top Gear)
(Machine)
(  vendor: Autodesk)
(  description: Generic Cutting Machine)
N10 G90
N15 G21

(Connect holes)
N20 M36 T1
(Through cutting)

N25 G0 X53.122 Y85.415
(TURN ON CUTTING)
N30 M7
(POINT-PIERCE)
N35 G41
N40 G1 X52.628 Y85.494 F600
N45 X52.313 Y83.519
N50 G3 X52.849 Y82.118 I1.481 J-0.236
N55 X59.151 Y89.882 I3.151 J3.882
N60 X52.849 Y82.118 I-3.151 J-3.882
N65 X54.33 Y81.882 I0.945 J1.165
N70 G1 X56.198 Y82.596
N75 G40
N80 X56.019 Y83.063
(TURN OFF CUTTING)
N85 M8
N90 G0 X28.268 Y54.134
(TURN ON CUTTING)
N95 M7
(POINT-PIERCE)
N100 G41
N105 G1 X28.518 Y53.701 F600
N110 X30.25 Y54.701
N115 G3 X31 Y56 I-0.75 J1.299
N120 X21 I-5
N125 X31 I5
N130 X30.25 Y57.299 I-1.5
N135 G1 X28.518 Y58.299
N140 G40
N145 X28.268 Y57.866
(TURN OFF CUTTING)
N150 M8
N155 G0 X57.9 Y28.239
(TURN ON CUTTING)
N160 M7
(POINT-PIERCE)
N165 G41
N170 G1 X58.337 Y28.483 F600
N175 X57.364 Y30.23
N180 G3 X56.076 Y30.999 I-1.31 J-0.73
N185 X55.924 Y21.001 I-0.076 J-4.999
N190 X56.076 Y30.999 I0.076 J4.999
N195 X54.766 Y30.269 I-0.023 J-1.5
N200 G1 X53.74 Y28.553
N205 G40
N210 X54.169 Y28.296
(TURN OFF CUTTING)
N215 M8
N220 G0 X83.063 Y55.95
(TURN ON CUTTING)
N225 M7
(POINT-PIERCE)
N230 G41
N235 G1 X82.592 Y56.117 F600
N240 X81.922 Y54.233
N245 G3 X82.194 Y52.757 I1.413 J-0.502
N250 X89.806 Y59.243 I3.806 J3.243
N255 X82.194 Y52.757 I-3.806 J-3.243
N260 X83.607 Y52.255 I1.142 J0.973
N265 G1 X85.574 Y52.617
N270 G40
N275 X85.484 Y53.109
(TURN OFF CUTTING)
N280 M8

(Center hole)
N285 G0 X68.268 Y54.134
(TURN ON CUTTING)
N290 M7
(POINT-PIERCE)
N295 G41
N300 G1 X68.518 Y53.701 F600
N305 X70.25 Y54.701
N310 G3 X71 Y56 I-0.75 J1.299
N315 X41 I-15
N320 X71 I15
N325 X70.25 Y57.299 I-1.5
N330 G1 X68.518 Y58.299
N335 G40
N340 X68.268 Y57.866
(TURN OFF CUTTING)
N345 M8

(Contour of gear)
N350 G0 X7.927 Y77.939
(TURN ON CUTTING)
N355 M7
(POINT-PIERCE)
N360 G41
N365 G1 X7.485 Y77.706 F600
N370 X8.419 Y75.937
N375 G3 X9.689 Y75.139 I1.326 J0.701
N380 G2 X14.223 Y74.047 I0.031 J-9.832
N385 G1 X14.365 Y73.993
N390 X14.511 Y73.953
N395 X14.661 Y73.928
N400 X14.812 Y73.916
N405 X14.964 Y73.92
N410 X15.115 Y73.938
N415 X15.263 Y73.97
N420 X15.408 Y74.016
N425 X15.547 Y74.076
N430 X15.681 Y74.149
N435 X15.806 Y74.235
N440 X15.923 Y74.332
N445 X16.03 Y74.44
N450 X16.127 Y74.558
N455 X16.211 Y74.684
N460 X16.283 Y74.818
N465 G2 X17.431 Y77.07 I39.717 J-18.818
N470 G3 X16.847 Y79.197 I-1.393 J0.761
N475 G2 X10.505 Y86.907 I8.581 J13.522
N480 X12.547 Y89.717 I45.495 J-30.907
N485 X21.914 Y86.162 I-1.012 J-16.783
N490 G1 X22.019 Y86.068
N495 X22.134 Y85.983
N500 X22.257 Y85.91
N505 X22.387 Y85.849
N510 X22.523 Y85.8
N515 X22.664 Y85.764
N520 X22.809 Y85.742
N525 X22.955 Y85.734
N530 X23.103 Y85.74
N535 X23.25 Y85.761
N540 X23.395 Y85.795
N545 X23.536 Y85.844
N550 X23.673 Y85.906
N555 X23.804 Y85.982
N560 X23.927 Y86.07
N565 X24.042 Y86.17
N570 G2 X25.83 Y87.957 I31.958 J-30.17
N575 G3 X25.932 Y90.16 I-1.09 J1.154
N580 G2 X22.283 Y99.453 I12.34 J10.209
N585 X25.093 Y101.495 I33.721 J-43.45
N590 X32.903 Y95.219 I-6.15 J-15.65
N595 G1 X32.974 Y95.097
N600 X33.057 Y94.981
N605 X33.151 Y94.873
N610 X33.256 Y94.775
N615 X33.371 Y94.686
N620 X33.494 Y94.609
N625 X33.624 Y94.543
N630 X33.761 Y94.49
N635 X33.903 Y94.45
N640 X34.049 Y94.424
N645 X34.198 Y94.412
N650 X34.347 Y94.415
N655 X34.497 Y94.432
N660 X34.645 Y94.463
N665 X34.789 Y94.509
N670 X34.93 Y94.569
N675 G2 X37.182 Y95.716 I21.07 J-38.569
N680 G3 X37.96 Y97.78 I-0.68 J1.435
N685 G2 X37.361 Y107.745 I14.891 J5.895
N690 X40.664 Y108.819 I18.647 J-51.743
N695 X46.037 Y100.405 I-9.784 J-12.17
N700 G3 X47.88 Y99.192 I1.549 J0.348
N705 G2 X50.376 Y99.588 I8.119 J-43.193
N710 G3 X51.753 Y101.31 I-0.203 J1.574
N715 G2 X54.263 Y110.973 I15.987 J1.005
N720 X57.737 I1.737 J-54.973
N725 X60.247 Y101.31 I-13.068 J-8.552
N730 G3 X61.624 Y99.588 I1.58 J-0.148
N735 G2 X64.12 Y99.193 I-5.623 J-43.588
N740 G3 X65.963 Y100.405 I0.293 J1.56
N745 G2 X71.336 Y108.819 I15.514 J-3.985
N750 X74.639 Y107.745 I-15.343 J-52.817
N755 X74.153 Y97.739 I-16.272 J-4.224
N760 G1 X74.096 Y97.609
N765 X74.051 Y97.474
N770 X74.019 Y97.334
N775 X74.001 Y97.191
N780 X73.996 Y97.047
N785 X74.006 Y96.902
N790 X74.03 Y96.757
N795 X74.067 Y96.616
N800 X74.119 Y96.477
N805 X74.183 Y96.344
N810 X74.261 Y96.217
N815 X74.351 Y96.097
N820 X74.453 Y95.986
N825 X74.565 Y95.885
N830 X74.687 Y95.795
N835 X74.818 Y95.717
N840 G2 X77.07 Y94.569 I-18.818 J-39.717
N845 G3 X79.197 Y95.153 I0.761 J1.393
N850 G2 X86.907 Y101.495 I13.524 J-8.583
N855 X89.717 Y99.453 I-30.91 J-45.493
N860 X86.162 Y90.086 I-16.783 J1.012
N865 G1 X86.068 Y89.981
N870 X85.983 Y89.866
N875 X85.91 Y89.743
N880 X85.849 Y89.613
N885 X85.8 Y89.477
N890 X85.764 Y89.336
N895 X85.742 Y89.191
N900 X85.734 Y89.045
N905 X85.74 Y88.897
N910 X85.761 Y88.75
N915 X85.795 Y88.605
N920 X85.844 Y88.464
N925 X85.906 Y88.327
N930 X85.982 Y88.196
N935 X86.07 Y88.073
N940 X86.17 Y87.958
N945 G2 X87.957 Y86.17 I-30.17 J-31.958
N950 G3 X90.16 Y86.068 I1.154 J1.09
N955 G2 X99.453 Y89.717 I10.209 J-12.34
N960 X101.495 Y86.907 I-43.45 J-33.721
N965 X95.219 Y79.097 I-15.65 J6.15
N970 G1 X95.097 Y79.026
N975 X94.981 Y78.943
N980 X94.873 Y78.849
N985 X94.775 Y78.744
N990 X94.686 Y78.629
N995 X94.609 Y78.506
N1000 X94.543 Y78.376
N1005 X94.49 Y78.239
N1010 X94.45 Y78.097
N1015 X94.424 Y77.951
N1020 X94.412 Y77.802
N1025 X94.415 Y77.653
N1030 X94.432 Y77.503
N1035 X94.463 Y77.355
N1040 X94.509 Y77.211
N1045 X94.569 Y77.07
N1050 G2 X95.716 Y74.818 I-38.569 J-21.07
N1055 G3 X97.78 Y74.04 I1.435 J0.68
N1060 G2 X107.745 Y74.639 I5.895 J-14.891
N1065 X108.819 Y71.336 I-51.743 J-18.647
N1070 X100.405 Y65.963 I-12.17 J9.784
N1075 G3 X99.192 Y64.12 I0.348 J-1.549
N1080 G2 X99.588 Y61.624 I-43.193 J-8.119
N1085 G3 X101.31 Y60.247 I1.574 J0.203
N1090 G2 X110.973 Y57.737 I1.005 J-15.987
N1095 Y54.263 I-54.973 J-1.737
N1100 X101.31 Y51.753 I-8.552 J13.068
N1105 G3 X99.588 Y50.376 I-0.148 J-1.58
N1110 G2 X99.193 Y47.88 I-43.588 J5.623
N1115 G3 X100.405 Y46.037 I1.56 J-0.293
N1120 G2 X108.819 Y40.664 I-3.985 J-15.514
N1125 X107.745 Y37.361 I-52.817 J15.343
N1130 X97.739 Y37.847 I-4.224 J16.272
N1135 G1 X97.609 Y37.904
N1140 X97.474 Y37.949
N1145 X97.334 Y37.981
N1150 X97.191 Y37.999
N1155 X97.047 Y38.004
N1160 X96.902 Y37.994
N1165 X96.757 Y37.97
N1170 X96.616 Y37.933
N1175 X96.477 Y37.881
N1180 X96.344 Y37.817
N1185 X96.217 Y37.739
N1190 X96.097 Y37.649
N1195 X95.986 Y37.547
N1200 X95.885 Y37.435
N1205 X95.795 Y37.313
N1210 X95.717 Y37.182
N1215 G2 X94.569 Y34.93 I-39.717 J18.818
N1220 G3 X95.153 Y32.803 I1.393 J-0.761
N1225 G2 X101.495 Y25.093 I-8.583 J-13.524
N1230 X99.453 Y22.283 I-45.493 J30.91
N1235 X90.086 Y25.838 I1.012 J16.783
N1240 G1 X89.981 Y25.932
N1245 X89.866 Y26.017
N1250 X89.743 Y26.09
N1255 X89.613 Y26.151
N1260 X89.477 Y26.2
N1265 X89.336 Y26.236
N1270 X89.191 Y26.258
N1275 X89.045 Y26.266
N1280 X88.897 Y26.26
N1285 X88.75 Y26.239
N1290 X88.605 Y26.205
N1295 X88.464 Y26.156
N1300 X88.327 Y26.094
N1305 X88.196 Y26.018
N1310 X88.073 Y25.93
N1315 X87.958 Y25.83
N1320 G2 X86.17 Y24.043 I-31.958 J30.17
N1325 G3 X86.068 Y21.84 I1.09 J-1.154
N1330 G2 X89.717 Y12.547 I-12.34 J-10.209
N1335 X86.907 Y10.505 I-33.718 J43.453
N1340 X79.097 Y16.781 I6.148 J15.648
N1345 G1 X79.026 Y16.903
N1350 X78.943 Y17.019
N1355 X78.849 Y17.127
N1360 X78.744 Y17.225
N1365 X78.629 Y17.314
N1370 X78.506 Y17.391
N1375 X78.376 Y17.457
N1380 X78.239 Y17.51
N1385 X78.097 Y17.55
N1390 X77.951 Y17.576
N1395 X77.802 Y17.588
N1400 X77.653 Y17.585
N1405 X77.503 Y17.568
N1410 X77.355 Y17.537
N1415 X77.211 Y17.491
N1420 X77.07 Y17.431
N1425 G2 X74.818 Y16.284 I-21.07 J38.569
N1430 G3 X74.04 Y14.22 I0.68 J-1.435
N1435 G2 X74.639 Y4.255 I-14.892 J-5.896
N1440 X71.336 Y3.181 I-18.639 J51.745
N1445 X65.963 Y11.595 I9.782 J12.169
N1450 G3 X64.12 Y12.808 I-1.549 J-0.348
N1455 G2 X61.624 Y12.412 I-8.119 J43.193
N1460 G3 X60.247 Y10.69 I0.203 J-1.574
N1465 G2 X57.737 Y1.027 I-15.984 J-1.005
N1470 X54.263 I-1.737 J54.973
N1475 X51.753 Y10.69 I13.065 J8.551
N1480 G3 X50.376 Y12.412 I-1.581 J0.148
N1485 G2 X47.88 Y12.807 I5.623 J43.588
N1490 G3 X46.037 Y11.595 I-0.293 J-1.56
N1495 G2 X40.664 Y3.181 I-15.512 J3.983
N1500 X37.361 Y4.255 I15.336 J52.819
N1505 X37.847 Y14.261 I16.273 J4.224
N1510 G1 X37.904 Y14.391
N1515 X37.949 Y14.526
N1520 X37.981 Y14.666
N1525 X37.999 Y14.809
N1530 X38.004 Y14.953
N1535 X37.994 Y15.098
N1540 X37.97 Y15.243
N1545 X37.933 Y15.384
N1550 X37.881 Y15.523
N1555 X37.817 Y15.656
N1560 X37.739 Y15.783
N1565 X37.649 Y15.903
N1570 X37.547 Y16.014
N1575 X37.435 Y16.115
N1580 X37.313 Y16.205
N1585 X37.182 Y16.283
N1590 G2 X34.93 Y17.431 I18.818 J39.717
N1595 G3 X32.803 Y16.847 I-0.761 J-1.393
N1600 G2 X25.093 Y10.505 I-13.522 J8.581
N1605 X22.283 Y12.547 I30.907 J45.495
N1610 X25.838 Y21.914 I16.783 J-1.012
N1615 G1 X25.932 Y22.019
N1620 X26.017 Y22.134
N1625 X26.09 Y22.257
N1630 X26.151 Y22.387
N1635 X26.2 Y22.523
N1640 X26.236 Y22.664
N1645 X26.258 Y22.809
N1650 X26.266 Y22.955
N1655 X26.26 Y23.103
N1660 X26.239 Y23.25
N1665 X26.205 Y23.395
N1670 X26.156 Y23.536
N1675 X26.094 Y23.673
N1680 X26.018 Y23.804
N1685 X25.93 Y23.927
N1690 X25.83 Y24.042
N1695 G2 X24.043 Y25.83 I30.17 J31.958
N1700 G3 X21.84 Y25.932 I-1.154 J-1.09
N1705 G2 X12.547 Y22.283 I-10.209 J12.34
N1710 X10.505 Y25.093 I43.453 J33.718
N1715 X16.781 Y32.903 I15.648 J-6.148
N1720 G1 X16.903 Y32.974
N1725 X17.019 Y33.057
N1730 X17.127 Y33.151
N1735 X17.225 Y33.256
N1740 X17.314 Y33.371
N1745 X17.391 Y33.494
N1750 X17.457 Y33.624
N1755 X17.51 Y33.761
N1760 X17.55 Y33.903
N1765 X17.576 Y34.049
N1770 X17.588 Y34.198
N1775 X17.585 Y34.347
N1780 X17.568 Y34.497
N1785 X17.537 Y34.645
N1790 X17.491 Y34.789
N1795 X17.431 Y34.93
N1800 G2 X16.284 Y37.182 I38.569 J21.07
N1805 G3 X14.22 Y37.96 I-1.435 J-0.68
N1810 G2 X4.255 Y37.361 I-5.896 J14.892
N1815 X3.181 Y40.664 I51.745 J18.639
N1820 X11.595 Y46.037 I12.169 J-9.781
N1825 G3 X12.808 Y47.88 I-0.348 J1.549
N1830 G2 X12.412 Y50.376 I43.193 J8.119
N1835 G3 X10.69 Y51.753 I-1.574 J-0.203
N1840 G2 X1.027 Y54.263 I-1.005 J15.984
N1845 Y57.737 I54.973 J1.737
N1850 X10.69 Y60.247 I8.551 J-13.065
N1855 G3 X12.412 Y61.624 I0.148 J1.581
N1860 G2 X12.807 Y64.12 I43.588 J-5.623
N1865 G3 X11.595 Y65.963 I-1.56 J0.293
N1870 G2 X3.181 Y71.336 I3.983 J15.512
N1875 X4.255 Y74.639 I52.819 J-15.336
N1880 X9.689 Y75.139 I4.843 J-22.883
N1885 G3 X11.015 Y75.839 I0.056 J1.499
N1890 G1 X12.08 Y77.533
N1895 G40
N1900 X11.657 Y77.799
(TURN OFF CUTTING)
N1905 M8

N1910 M19
N1915 M30
