(1013)
(Top Gear)
(Machine)
(  vendor: Autodesk)
(  description: Generic Cutting Machine)
N10 G90
N15 G21

(Connect holes)
N20 M36 T1
(Through cutting)

N25 G0 X53.122 Y85.415
(TURN ON CUTTING)
N30 M7
(POINT-PIERCE)
N35 G1 X52.807 Y83.44 F600
N40 G3 X53.164 Y82.506 I0.987 J-0.158
N45 X58.836 Y89.494 I2.836 J3.494
N50 X53.164 Y82.506 I-2.836 J-3.494
N55 X54.151 Y82.349 I0.63 J0.776
N60 G1 X56.019 Y83.063
(TURN OFF CUTTING)
N65 M8
N70 G0 X28.268 Y54.134
(TURN ON CUTTING)
N75 M7
(POINT-PIERCE)
N80 G1 X30 Y55.134 F600
N85 G3 X30.5 Y56 I-0.5 J0.866
N90 X21.5 I-4.5
N95 X30.5 I4.5
N100 X30 Y56.866 I-1
N105 G1 X28.268 Y57.866
(TURN OFF CUTTING)
N110 M8
N115 G0 X57.9 Y28.239
(TURN ON CUTTING)
N120 M7
(POINT-PIERCE)
N125 G1 X56.927 Y29.986 F600
N130 G3 X56.069 Y30.499 I-0.874 J-0.487
N135 X55.931 Y21.501 I-0.069 J-4.499
N140 X56.069 Y30.499 I0.069 J4.499
N145 X55.195 Y30.013 I-0.015 J-1
N150 G1 X54.169 Y28.296
(TURN OFF CUTTING)
N155 M8
N160 G0 X83.063 Y55.95
(TURN ON CUTTING)
N165 M7
(POINT-PIERCE)
N170 G1 X82.394 Y54.065 F600
N175 G3 X82.575 Y53.082 I0.942 J-0.335
N180 X89.425 Y58.918 I3.425 J2.918
N185 X82.575 Y53.082 I-3.425 J-2.918
N190 X83.517 Y52.747 I0.761 J0.649
N195 G1 X85.484 Y53.109
(TURN OFF CUTTING)
N200 M8

(Center hole)
N205 G0 X68.268 Y54.134
(TURN ON CUTTING)
N210 M7
(POINT-PIERCE)
N215 G1 X70 Y55.134 F600
N220 G3 X70.5 Y56 I-0.5 J0.866
N225 X41.5 I-14.5
N230 X70.5 I14.5
N235 X70 Y56.866 I-1
N240 G1 X68.268 Y57.866
(TURN OFF CUTTING)
N245 M8

(Contour of gear)
N250 G0 X4.632 Y77.55
(TURN ON CUTTING)
N255 M7
(POINT-PIERCE)
N260 G1 X5.809 Y75.933 F600
N265 G3 X6.723 Y75.527 I0.808 J0.589
N270 G2 X14.478 Y74.66 I2.136 J-16.008
N275 G1 X14.576 Y74.61
N280 X14.681 Y74.571
N285 X14.791 Y74.544
N290 X14.905 Y74.531
N295 X15.022
N300 X15.139 Y74.546
N305 X15.256 Y74.575
N310 X15.369 Y74.619
N315 X15.477 Y74.676
N320 X15.58 Y74.747
N325 X15.674 Y74.831
N330 X15.758 Y74.926
N335 X15.832 Y75.032
N340 G2 X16.992 Y77.31 I40.168 J-19.032
N345 G3 X16.592 Y78.767 I-0.954 J0.521
N350 G2 X10.051 Y86.699 I8.941 J14.037
N355 X10.092 Y87.188 I0.455 J0.208
N360 X12.152 Y90.024 I45.908 J-31.188
N365 X12.604 Y90.214 I0.395 J-0.307
N370 X22.326 Y86.664 I-1.622 J-19.53
N375 G1 X22.39 Y86.584
N380 X22.465 Y86.511
N385 X22.55 Y86.446
N390 X22.645 Y86.392
N395 X22.749 Y86.348
N400 X22.859 Y86.318
N405 X22.974 Y86.3
N410 X23.094 Y86.298
N415 X23.215 Y86.31
N420 X23.336 Y86.338
N425 X23.455 Y86.381
N430 X23.57 Y86.44
N435 X23.679 Y86.514
N440 G2 X25.486 Y88.321 I32.321 J-30.514
N445 G3 X25.556 Y89.83 I-0.747 J0.791
N450 G2 X21.786 Y99.396 I12.883 J10.604
N455 X21.976 Y99.848 I0.497 J0.057
N460 X24.812 Y101.909 I34.027 J-43.845
N465 X25.306 Y101.948 I0.281 J-0.414
N470 X33.448 Y95.567 I-7.55 J-18.02
N475 G1 X33.484 Y95.471
N480 X33.533 Y95.378
N485 X33.595 Y95.291
N490 X33.669 Y95.209
N495 X33.754 Y95.136
N500 X33.849 Y95.073
N505 X33.954 Y95.021
N510 X34.067 Y94.982
N515 X34.186 Y94.957
N520 X34.31 Y94.946
N525 X34.436 Y94.95
N530 X34.564 Y94.971
N535 X34.69 Y95.008
N540 G2 X36.968 Y96.168 I21.31 J-39.008
N545 G3 X37.5 Y97.582 I-0.466 J0.983
N550 G2 X36.978 Y107.811 I13.6 J5.823
N555 G1 X36.977 Y107.883
N560 X36.991 Y107.957
N565 X37.02 Y108.03
N570 X37.063 Y108.1
N575 X37.121 Y108.162
N580 X37.191 Y108.215
N585 G2 X40.525 Y109.299 I18.816 J-52.213
N590 X41.003 Y109.187 I0.139 J-0.48
N595 X46.78 Y100.6 I-12.77 J-14.829
N600 G1 X46.784 Y100.498
N605 X46.802 Y100.395
N610 X46.834 Y100.292
N615 X46.879 Y100.192
N620 X46.937 Y100.096
N625 X47.008 Y100.007
N630 X47.092 Y99.925
N635 X47.187 Y99.853
N640 X47.292 Y99.791
N645 X47.406 Y99.743
N650 X47.528 Y99.708
N655 X47.656 Y99.688
N660 X47.787 Y99.684
N665 G2 X50.312 Y100.084 I8.212 J-43.684
N670 G3 X51.255 Y101.263 I-0.139 J1.078
N675 G2 X53.917 Y111.155 I14.76 J1.333
N680 G1 X53.94 Y111.224
N685 X53.976 Y111.29
N690 X54.027 Y111.351
N695 X54.09 Y111.403
N700 X54.164 Y111.445
N705 X54.247 Y111.473
N710 G2 X57.753 I1.753 J-55.473
N715 X58.173 Y111.218 I-0.016 J-0.5
N720 X61.013 Y101.266 I-16.725 J-10.156
N725 G1 X60.986 Y101.168
N730 X60.971 Y101.064
N735 X60.969 Y100.957
N740 X60.981 Y100.848
N745 X61.007 Y100.739
N750 X61.047 Y100.631
N755 X61.101 Y100.528
N760 X61.169 Y100.43
N765 X61.25 Y100.339
N770 X61.344 Y100.257
N775 X61.449 Y100.187
N780 X61.564 Y100.128
N785 X61.688 Y100.084
N790 G2 X64.213 Y99.684 I-5.687 J-44.084
N795 G3 X65.475 Y100.515 I0.201 J1.069
N800 G2 X70.997 Y109.187 I16.151 J-4.19
N805 X71.475 Y109.299 I0.338 J-0.368
N810 X74.809 Y108.215 I-15.483 J-53.297
N815 X75.13 Y107.844 I-0.17 J-0.47
N820 X74.757 Y97.501 I-19.051 J-4.491
N825 G1 X74.7 Y97.416
N830 X74.654 Y97.322
N835 X74.619 Y97.221
N840 X74.596 Y97.114
N845 X74.587 Y97.002
N850 X74.592 Y96.888
N855 X74.612 Y96.772
N860 X74.646 Y96.658
N865 X74.695 Y96.546
N870 X74.759 Y96.44
N875 X74.837 Y96.34
N880 X74.928 Y96.249
N885 X75.032 Y96.168
N890 G2 X77.31 Y95.008 I-19.032 J-40.168
N895 G3 X78.767 Y95.408 I0.521 J0.954
N900 G2 X86.694 Y101.948 I14.068 J-8.978
N905 X87.188 Y101.909 I0.213 J-0.453
N910 X90.024 Y99.848 I-31.191 J-45.906
N915 X90.214 Y99.396 I-0.307 J-0.395
N920 X86.663 Y89.674 I-19.519 J1.619
N925 G1 X86.584 Y89.61
N930 X86.511 Y89.535
N935 X86.446 Y89.45
N940 X86.391 Y89.355
N945 X86.348 Y89.251
N950 X86.317 Y89.141
N955 X86.3 Y89.025
N960 X86.297 Y88.906
N965 X86.31 Y88.785
N970 X86.337 Y88.664
N975 X86.381 Y88.545
N980 X86.44 Y88.43
N985 X86.514 Y88.321
N990 G2 X88.321 Y86.514 I-30.514 J-32.321
N995 G3 X89.83 Y86.444 I0.791 J0.747
N1000 G2 X99.396 Y90.214 I10.604 J-12.883
N1005 X99.848 Y90.024 I0.057 J-0.497
N1010 X101.909 Y87.188 I-43.845 J-34.027
N1015 X101.948 Y86.694 I-0.414 J-0.281
N1020 X95.567 Y78.551 I-18.038 J7.562
N1025 G1 X95.472 Y78.515
N1030 X95.379 Y78.466
N1035 X95.291 Y78.405
N1040 X95.21 Y78.331
N1045 X95.137 Y78.246
N1050 X95.074 Y78.151
N1055 X95.022 Y78.046
N1060 X94.982 Y77.933
N1065 X94.957 Y77.814
N1070 X94.946 Y77.69
N1075 X94.951 Y77.564
N1080 X94.971 Y77.436
N1085 X95.008 Y77.31
N1090 G2 X96.168 Y75.032 I-39.008 J-21.31
N1095 G3 X97.582 Y74.5 I0.983 J0.466
N1100 G2 X107.811 Y75.023 I5.822 J-13.592
N1105 G1 X107.883
N1110 X107.957 Y75.009
N1115 X108.03 Y74.98
N1120 X108.1 Y74.937
N1125 X108.162 Y74.879
N1130 X108.215 Y74.809
N1135 G2 X109.299 Y71.475 I-52.213 J-18.816
N1140 X109.187 Y70.997 I-0.48 J-0.139
N1145 X100.6 Y65.22 I-14.83 J12.772
N1150 G1 X100.498 Y65.216
N1155 X100.395 Y65.198
N1160 X100.292 Y65.166
N1165 X100.192 Y65.121
N1170 X100.096 Y65.063
N1175 X100.007 Y64.992
N1180 X99.925 Y64.908
N1185 X99.853 Y64.813
N1190 X99.791 Y64.708
N1195 X99.743 Y64.594
N1200 X99.708 Y64.472
N1205 X99.688 Y64.344
N1210 X99.684 Y64.213
N1215 G2 X100.084 Y61.688 I-43.684 J-8.212
N1220 G3 X101.263 Y60.745 I1.078 J0.139
N1225 G2 X111.155 Y58.083 I1.333 J-14.76
N1230 G1 X111.224 Y58.06
N1235 X111.29 Y58.024
N1240 X111.351 Y57.973
N1245 X111.403 Y57.91
N1250 X111.445 Y57.836
N1255 X111.473 Y57.753
N1260 G2 Y54.247 I-55.473 J-1.753
N1265 X111.218 Y53.827 I-0.5 J0.016
N1270 X101.266 Y50.987 I-10.153 J16.718
N1275 G1 X101.168 Y51.014
N1280 X101.064 Y51.029
N1285 X100.957 Y51.031
N1290 X100.848 Y51.019
N1295 X100.738 Y50.993
N1300 X100.631 Y50.953
N1305 X100.528 Y50.899
N1310 X100.429 Y50.831
N1315 X100.339 Y50.75
N1320 X100.257 Y50.656
N1325 X100.186 Y50.551
N1330 X100.128 Y50.436
N1335 X100.084 Y50.312
N1340 G2 X99.684 Y47.787 I-44.084 J5.687
N1345 G3 X100.515 Y46.525 I1.069 J-0.201
N1350 G2 X109.099 Y40.937 I-3.284 J-14.432
N1355 G1 X109.157 Y40.894
N1360 X109.209 Y40.839
N1365 X109.251 Y40.772
N1370 X109.281 Y40.696
N1375 X109.298 Y40.613
N1380 X109.299 Y40.525
N1385 G2 X108.215 Y37.191 I-53.297 J15.483
N1390 X107.844 Y36.87 I-0.47 J0.17
N1395 X97.501 Y37.243 I-4.491 J19.059
N1400 G1 X97.416 Y37.3
N1405 X97.322 Y37.346
N1410 X97.221 Y37.381
N1415 X97.114 Y37.403
N1420 X97.002 Y37.413
N1425 X96.888 Y37.408
N1430 X96.772 Y37.388
N1435 X96.658 Y37.354
N1440 X96.547 Y37.305
N1445 X96.44 Y37.241
N1450 X96.34 Y37.163
N1455 X96.249 Y37.072
N1460 X96.168 Y36.968
N1465 G2 X95.008 Y34.69 I-40.168 J19.032
N1470 G3 X95.408 Y33.233 I0.954 J-0.521
N1475 G2 X101.844 Y25.271 I-7.575 J-12.706
N1480 G1 X101.887 Y25.211
N1485 X101.92 Y25.142
N1490 X101.94 Y25.065
N1495 X101.946 Y24.982
N1500 X101.935 Y24.897
N1505 X101.909 Y24.812
N1510 G2 X99.848 Y21.976 I-45.906 J31.191
N1515 X99.396 Y21.786 I-0.395 J0.307
N1520 X89.674 Y25.337 I1.618 J19.516
N1525 G1 X89.61 Y25.417
N1530 X89.535 Y25.49
N1535 X89.45 Y25.554
N1540 X89.355 Y25.609
N1545 X89.251 Y25.652
N1550 X89.141 Y25.683
N1555 X89.025 Y25.7
N1560 X88.906 Y25.703
N1565 X88.785 Y25.69
N1570 X88.664 Y25.663
N1575 X88.545 Y25.619
N1580 X88.43 Y25.56
N1585 X88.321 Y25.486
N1590 G2 X86.514 Y23.679 I-32.321 J30.514
N1595 G3 X86.444 Y22.17 I0.747 J-0.791
N1600 G2 X90.102 Y12.603 I-11.138 J-9.742
N1605 G1 X90.124 Y12.534
N1610 X90.134 Y12.459
N1615 X90.129 Y12.381
N1620 X90.11 Y12.302
N1625 X90.074 Y12.224
N1630 X90.024 Y12.152
N1635 G2 X87.188 Y10.092 I-34.024 J43.848
N1640 X86.699 Y10.051 I-0.281 J0.414
N1645 X78.55 Y16.431 I7.573 J18.066
N1650 G1 X78.514 Y16.527
N1655 X78.466 Y16.62
N1660 X78.404 Y16.708
N1665 X78.331 Y16.789
N1670 X78.246 Y16.862
N1675 X78.151 Y16.925
N1680 X78.046 Y16.977
N1685 X77.933 Y17.017
N1690 X77.814 Y17.043
N1695 X77.69 Y17.054
N1700 X77.564 Y17.049
N1705 X77.436 Y17.029
N1710 X77.31 Y16.992
N1715 G2 X75.032 Y15.832 I-21.31 J39.008
N1720 G3 X74.5 Y14.418 I0.466 J-0.983
N1725 G2 X75.025 Y4.188 I-13.632 J-5.828
N1730 G1 X75.024 Y4.116
N1735 X75.01 Y4.042
N1740 X74.981 Y3.968
N1745 X74.937 Y3.899
N1750 X74.879 Y3.837
N1755 X74.809 Y3.784
N1760 G2 X71.475 Y2.701 I-18.809 J52.216
N1765 X70.998 Y2.813 I-0.139 J0.48
N1770 X65.219 Y11.4 I12.797 J14.85
N1775 G1 X65.214 Y11.502
N1780 X65.197 Y11.605
N1785 X65.165 Y11.707
N1790 X65.121 Y11.807
N1795 X65.063 Y11.903
N1800 X64.992 Y11.993
N1805 X64.908 Y12.075
N1810 X64.813 Y12.147
N1815 X64.708 Y12.208
N1820 X64.594 Y12.257
N1825 X64.472 Y12.292
N1830 X64.344 Y12.312
N1835 X64.213 Y12.316
N1840 G2 X61.688 Y11.916 I-8.212 J43.684
N1845 G3 X60.745 Y10.737 I0.139 J-1.079
N1850 G2 X58.084 Y0.844 I-14.775 J-1.329
N1855 G1 X58.061 Y0.776
N1860 X58.024 Y0.71
N1865 X57.973 Y0.649
N1870 X57.91 Y0.597
N1875 X57.836 Y0.556
N1880 X57.753 Y0.528
N1885 G2 X54.247 I-1.753 J55.472
N1890 X53.828 Y0.782 I0.016 J0.5
N1895 X50.985 Y10.734 I16.76 J10.169
N1900 G1 X51.013 Y10.832
N1905 X51.028 Y10.936
N1910 X51.03 Y11.043
N1915 X51.018 Y11.152
N1920 X50.992 Y11.261
N1925 X50.953 Y11.368
N1930 X50.898 Y11.472
N1935 X50.831 Y11.57
N1940 X50.749 Y11.661
N1945 X50.656 Y11.742
N1950 X50.551 Y11.813
N1955 X50.436 Y11.872
N1960 X50.312 Y11.916
N1965 G2 X47.787 Y12.316 I5.687 J44.084
N1970 G3 X46.525 Y11.486 I-0.201 J-1.069
N1975 G2 X40.937 Y2.9 I-14.462 J3.301
N1980 G1 X40.894 Y2.842
N1985 X40.839 Y2.79
N1990 X40.772 Y2.748
N1995 X40.696 Y2.718
N2000 X40.613 Y2.702
N2005 X40.525 Y2.701
N2010 G2 X37.191 Y3.784 I15.475 J53.299
N2015 X36.87 Y4.156 I0.169 J0.47
N2020 X37.243 Y14.499 I19.075 J4.492
N2025 G1 X37.299 Y14.584
N2030 X37.345 Y14.678
N2035 X37.38 Y14.779
N2040 X37.403 Y14.886
N2045 X37.412 Y14.998
N2050 X37.408 Y15.112
N2055 X37.388 Y15.227
N2060 X37.354 Y15.342
N2065 X37.305 Y15.453
N2070 X37.241 Y15.56
N2075 X37.163 Y15.66
N2080 X37.072 Y15.751
N2085 X36.968 Y15.832
N2090 G2 X34.69 Y16.992 I19.032 J40.168
N2095 G3 X33.233 Y16.592 I-0.521 J-0.954
N2100 G2 X25.266 Y10.154 I-12.716 J7.589
N2105 G1 X25.207 Y10.112
N2110 X25.139 Y10.08
N2115 X25.062 Y10.061
N2120 X24.981 Y10.055
N2125 X24.896 Y10.065
N2130 X24.812 Y10.092
N2135 G2 X21.976 Y12.152 I31.188 J45.908
N2140 X21.786 Y12.604 I0.307 J0.395
N2145 X25.337 Y22.326 I19.516 J-1.618
N2150 G1 X25.417 Y22.39
N2155 X25.49 Y22.465
N2160 X25.554 Y22.55
N2165 X25.609 Y22.645
N2170 X25.652 Y22.749
N2175 X25.683 Y22.859
N2180 X25.7 Y22.975
N2185 X25.703 Y23.094
N2190 X25.69 Y23.215
N2195 X25.663 Y23.336
N2200 X25.619 Y23.455
N2205 X25.56 Y23.57
N2210 X25.486 Y23.679
N2215 G2 X23.679 Y25.486 I30.514 J32.321
N2220 G3 X22.17 Y25.556 I-0.791 J-0.747
N2225 G2 X12.603 Y21.898 I-9.742 J11.138
N2230 G1 X12.534 Y21.876
N2235 X12.459 Y21.866
N2240 X12.381 Y21.871
N2245 X12.302 Y21.89
N2250 X12.224 Y21.926
N2255 X12.152 Y21.976
N2260 G2 X10.092 Y24.812 I43.848 J34.024
N2265 X10.051 Y25.301 I0.414 J0.281
N2270 X16.432 Y33.449 I18.059 J-7.569
N2275 G1 X16.527 Y33.485
N2280 X16.62 Y33.534
N2285 X16.708 Y33.596
N2290 X16.789 Y33.669
N2295 X16.862 Y33.754
N2300 X16.926 Y33.849
N2305 X16.978 Y33.954
N2310 X17.017 Y34.067
N2315 X17.043 Y34.186
N2320 X17.054 Y34.31
N2325 X17.049 Y34.436
N2330 X17.029 Y34.564
N2335 X16.992 Y34.69
N2340 G2 X15.832 Y36.968 I39.008 J21.31
N2345 G3 X14.418 Y37.5 I-0.983 J-0.466
N2350 G2 X4.188 Y36.975 I-5.828 J13.632
N2355 G1 X4.116 Y36.976
N2360 X4.042 Y36.99
N2365 X3.968 Y37.019
N2370 X3.899 Y37.063
N2375 X3.837 Y37.121
N2380 X3.784 Y37.191
N2385 G2 X2.701 Y40.525 I52.216 J18.809
N2390 X2.813 Y41.002 I0.48 J0.139
N2395 X11.399 Y46.781 I14.85 J-12.797
N2400 G1 X11.502 Y46.786
N2405 X11.605 Y46.803
N2410 X11.707 Y46.835
N2415 X11.807 Y46.879
N2420 X11.903 Y46.937
N2425 X11.993 Y47.008
N2430 X12.075 Y47.092
N2435 X12.147 Y47.187
N2440 X12.208 Y47.292
N2445 X12.257 Y47.406
N2450 X12.292 Y47.528
N2455 X12.312 Y47.656
N2460 X12.316 Y47.787
N2465 G2 X11.916 Y50.312 I43.684 J8.212
N2470 G3 X10.737 Y51.255 I-1.079 J-0.139
N2475 G2 X0.782 Y53.828 I-0.983 J16.746
N2480 X0.528 Y54.247 I0.246 J0.435
N2485 Y57.753 I55.472 J1.753
N2490 X0.782 Y58.172 I0.5 J-0.016
N2495 X10.734 Y61.015 I10.169 J-16.76
N2500 G1 X10.832 Y60.987
N2505 X10.936 Y60.972
N2510 X11.043 Y60.97
N2515 X11.152 Y60.982
N2520 X11.261 Y61.008
N2525 X11.368 Y61.047
N2530 X11.472 Y61.102
N2535 X11.57 Y61.169
N2540 X11.661 Y61.251
N2545 X11.742 Y61.344
N2550 X11.813 Y61.449
N2555 X11.872 Y61.564
N2560 X11.916 Y61.688
N2565 G2 X12.316 Y64.213 I44.084 J-5.687
N2570 G3 X11.486 Y65.475 I-1.069 J0.201
N2575 G2 X2.813 Y70.998 I4.239 J16.228
N2580 X2.701 Y71.475 I0.368 J0.338
N2585 X3.784 Y74.809 I53.299 J-15.475
N2590 X4.156 Y75.13 I0.47 J-0.169
N2595 X6.723 Y75.527 I5.394 J-26.32
N2600 G3 X7.532 Y76.116 I-0.106 J0.994
N2605 G1 X8.343 Y77.944
(TURN OFF CUTTING)
N2610 M8

N2615 M19
N2620 M30
