(1012)
(Machine)
(  vendor: Autodesk)
(  description: Generic Cutting Machine)
N10 G90
N15 G21

(2D Profile13)
N20 M36 T1
(Through cutting)

N25 G0 X102.238 Y64.89
(TURN ON CUTTING)
N30 M7
(POINT-PIERCE)
N35 G4 X5.
N40 G41
N45 G1 X101.74 Y64.937 F600
N50 X101.645 Y63.942
N55 G3 X102.269 Y62.578 I1.493 J-0.142
N60 G1 X102.477 Y62.45
N65 X102.694 Y62.336
N70 X102.917 Y62.237
N75 X103.147 Y62.153
N80 X103.381 Y62.083
N85 X103.619 Y62.029
N90 X103.861 Y61.99
N95 X104.104 Y61.967
N100 X104.348 Y61.96
N105 X104.593 Y61.969
N110 X104.836 Y61.994
N115 X105.077 Y62.034
N120 X105.315 Y62.09
N125 X105.549 Y62.161
N130 X105.777 Y62.248
N135 X106 Y62.349
N140 X106.216 Y62.464
N145 X106.423 Y62.593
N150 X106.622 Y62.735
N155 X106.811 Y62.89
N160 X106.99 Y63.056
N165 X107.157 Y63.234
N170 G3 X103.021 Y67.873 I-11.882 J-6.432
N175 G1 X96.497 Y71.676
N180 X100.268 Y65.779
N185 G3 X102.269 Y62.578 I4.587 J0.641
N190 X103.762 Y62.435 I0.87 J1.222
N195 G1 X104.672 Y62.851
N200 G40
N205 X104.464 Y63.306
(TURN OFF CUTTING)
N210 M8
N215 G0 X111.15 Y70.424
(TURN ON CUTTING)
N220 M7
(POINT-PIERCE)
N225 G4 X5.
N230 G41
N235 G1 X110.809 Y70.79 F600
N240 X110.077 Y70.109
N245 G3 X109.637 Y68.675 I1.022 J-1.098
N250 X110.888 Y67.152 I2.534 J0.805
N255 X114.501 Y60.071 I65.719 J29.067
N260 G1 X117.493 Y54.785
N265 G2 X123.217 Y40.874 I-40.438 J-24.771
N270 G1 X123.108 Y40.664
N275 X122.986 Y40.462
N280 X122.852 Y40.267
N285 X122.706 Y40.081
N290 X122.549 Y39.905
N295 X122.382 Y39.738
N300 X122.205 Y39.582
N305 X122.018 Y39.437
N310 X121.823 Y39.304
N315 X121.62 Y39.183
N320 X121.41 Y39.075
N325 X121.194 Y38.98
N330 X120.972 Y38.898
N335 X120.746 Y38.83
N340 G2 X116.291 Y35.341 I-3.797 J0.259
N345 X112.43 Y34.043 I-2.346 J0.587
N350 X108.412 Y36 I2.45 J10.133
N355 G3 X106.816 Y41.049 I-4.495 J1.356
N360 X91.65 Y48.62 I-14.054 J-9.176
N365 X85.172 Y52.612 I-32.259 J-45.097
N370 X81.282 Y50.351 I-0.455 J-3.694
N375 G1 X77.07 Y43.476
N380 G3 X68 Y27 I212.088 J-127.485
N385 G2 X65.398 Y5.883 I-44.139 J-5.281
N390 G1 X64.733 Y5.037
N395 G2 X62 Y1 I-26.771 J15.18
N400 G3 X57.897 Y21.246 I-12.851 J7.934
N405 X42.327 Y32.096 I-44.544 J-47.324
N410 G1 X39.122 Y33.857
N415 X35.823 Y35.539
N420 X32.487 Y37.164
N425 X29.153 Y38.72
N430 X25.854 Y40.197
N435 X22.622 Y41.585
N440 X19.48 Y42.877
N445 X16.447 Y44.068
N450 G3 X1 Y49 I-44.61 J-113.072
N455 X14.99 Y50.618 I3.458 J31.384
N460 G2 X6 Y53 I-0.524 J16.18
N465 G3 X14.882 Y52.62 I5.226 J18.168
N470 G1 X15.144 Y52.738
N475 X15.399 Y52.869
N480 X15.646 Y53.015
N485 X15.884 Y53.173
N490 X16.114 Y53.345
N495 X16.333 Y53.529
N500 X16.542 Y53.726
N505 X16.74 Y53.933
N510 X16.926 Y54.151
N515 X17.1 Y54.379
N520 X17.261 Y54.616
N525 X17.409 Y54.862
N530 X17.542 Y55.115
N535 X17.662 Y55.376
N540 X17.767 Y55.643
N545 X17.857 Y55.915
N550 X17.931 Y56.192
N555 X17.991 Y56.472
N560 X18.034 Y56.755
N565 X18.062 Y57.041
N570 X18.074 Y57.327
N575 X18.071 Y57.613
N580 X18.051 Y57.899
N585 X18.016 Y58.184
N590 X17.965 Y58.466
N595 X17.898 Y58.745
N600 X17.816 Y59.019
N605 X17.719 Y59.289
N610 X17.608 Y59.553
N615 X17.482 Y59.81
N620 X17.341 Y60.06
N625 X17.188 Y60.302
N630 X17.021 Y60.535
N635 X16.841 Y60.758
N640 X16.649 Y60.971
N645 X16.446 Y61.173
N650 X16.232 Y61.364
N655 X16.008 Y61.542
N660 X15.774 Y61.708
N665 X15.532 Y61.861
N670 X15.281 Y62
N675 G3 X6.49 Y63.857 I-6.62 J-9.602
N680 X1 Y63 I3.637 J-41.326
N685 G2 X20.003 Y65.111 I12.799 J-28.631
N690 G1 X21.192 Y64.715
N695 X26.149 Y63.384
N700 G3 X36.468 Y62.665 I6.235 J15.071
N705 X36.813 Y68.351 I-0.245 J2.868
N710 X30.169 Y67.649 I-2.777 J-5.51
N715 G2 X41.689 Y72.065 I10.25 J-9.504
N720 G3 X52.95 Y73.113 I3.183 J26.823
N725 G1 X58.062 Y75.005
N730 X52.756 Y74.141
N735 G2 X35.939 Y81.332 I-1.336 J20.136
N740 G1 X34.893 Y82.084
N745 X34 Y83
N750 X34.405 Y82.664
N755 X34.819 Y82.341
N760 X35.243 Y82.029
N765 X35.675 Y81.73
N770 X36.116 Y81.444
N775 X36.566 Y81.171
N780 X37.023 Y80.911
N785 X37.487 Y80.664
N790 X37.959 Y80.431
N795 X38.437 Y80.212
N800 X38.921 Y80.007
N805 X39.411 Y79.816
N810 X39.906 Y79.64
N815 X40.406 Y79.478
N820 X40.911 Y79.331
N825 X41.42 Y79.199
N830 X41.932 Y79.081
N835 X42.448 Y78.979
N840 X42.967 Y78.891
N845 X43.487 Y78.819
N850 X44.01 Y78.762
N855 X44.534 Y78.72
N860 X45.059 Y78.694
N865 X45.585 Y78.683
N870 X46.111 Y78.687
N875 X46.636 Y78.707
N880 X47.161 Y78.741
N885 X47.684 Y78.792
N890 X48.206 Y78.857
N895 X48.725 Y78.938
N900 X49.242 Y79.034
N905 X49.756 Y79.144
N910 X50.267 Y79.27
N915 X50.773 Y79.411
N920 X51.276 Y79.566
N925 X51.773 Y79.736
N930 X52.265 Y79.921
N935 X52.752 Y80.119
N940 X53.233 Y80.332
N945 G3 X51.224 Y84.186 I-1.552 J1.641
N950 G1 X49.251 Y83.55
N955 X49.553 Y83.843
N960 X49.867 Y84.124
N965 X50.19 Y84.394
N970 X50.523 Y84.652
N975 X50.866 Y84.897
N980 X51.217 Y85.129
N985 X51.576 Y85.349
N990 X51.943 Y85.555
N995 X52.318 Y85.747
N1000 X52.699 Y85.926
N1005 X53.087 Y86.09
N1010 X53.48 Y86.24
N1015 X53.879 Y86.376
N1020 X54.282 Y86.497
N1025 X54.69 Y86.603
N1030 X55.101 Y86.694
N1035 X55.515 Y86.77
N1040 X55.932 Y86.83
N1045 X56.351 Y86.875
N1050 X56.771 Y86.905
N1055 X57.192 Y86.919
N1060 X57.613 Y86.918
N1065 X58.033 Y86.902
N1070 X58.453 Y86.87
N1075 X58.872 Y86.822
N1080 X59.288 Y86.76
N1085 X59.702 Y86.682
N1090 X60.112 Y86.589
N1095 X60.519 Y86.48
N1100 X60.922 Y86.358
N1105 G3 X65.75 Y85.925 I3.836 J15.672
N1110 G1 X66.364 Y86.089
N1115 G3 X59.765 Y91.169 I-9.447 J-5.447
N1120 X41.079 Y87.908 I-6.605 J-17.315
N1125 G2 X64.425 Y94.191 I15.342 J-10.492
N1130 G1 X66.98 Y93.351
N1135 X72.265 Y91.296
N1140 G3 X81.833 Y87.707 I20.163 J39.206
N1145 X85.547 Y89.198 I1.197 J2.389
N1150 G1 X85.494 Y89.41
N1155 X85.427 Y89.618
N1160 X85.345 Y89.82
N1165 X85.25 Y90.017
N1170 X85.142 Y90.207
N1175 X85.021 Y90.389
N1180 X84.889 Y90.562
N1185 X84.744 Y90.726
N1190 X84.589 Y90.88
N1195 X84.424 Y91.023
N1200 X84.249 Y91.154
N1205 X84.066 Y91.273
N1210 X83.875 Y91.379
N1215 X83.677 Y91.472
N1220 X83.474 Y91.551
N1225 X83.265 Y91.617
N1230 X83.053 Y91.667
N1235 X82.838 Y91.704
N1240 X82.62 Y91.725
N1245 X82.402 Y91.732
N1250 X81.051 Y92.111
N1255 X79.452 Y92.409
N1260 X78.114 Y92.628
N1265 G2 X91.561 Y87.466 I2.262 J-14.204
N1270 G3 X94.769 Y88.409 I1.06 J2.322
N1275 G2 X99.068 Y93.575 I18.685 J-11.177
N1280 G1 X99.138 Y93.596
N1285 G3 X98.497 Y86.141 I28.403 J-6.194
N1290 X103.987 Y91.843 I-19.494 J24.262
N1295 X101.451 Y78.329 I15.427 J-9.891
N1300 X108.183 Y71.033 I583.813 J531.978
N1305 G2 X109.637 Y68.675 I-5.433 J-4.977
N1310 G3 X110.658 Y67.577 I1.462 J0.336
N1315 G1 X111.614 Y67.284
N1320 G40
N1325 X111.761 Y67.762
(TURN OFF CUTTING)
N1330 M8

N1335 M19
N1340 M30
