(1012)
(Machine)
(  vendor: Autodesk)
(  description: Generic Cutting Machine)
N10 G90
N15 G21

(2D Profile13)
N20 M36 T1
(Through cutting)

N25 G0 X102.238 Y64.89
(TURN ON CUTTING)
N30 M7
(POINT-PIERCE)
N35 G4 X5.
N40 G1 X102.143 Y63.894 F600
N45 G3 X102.559 Y62.985 I0.995 J-0.095
N50 G1 X102.738 Y62.871
N55 X102.925 Y62.771
N60 X103.119 Y62.685
N65 X103.318 Y62.612
N70 X103.522 Y62.554
N75 X103.73 Y62.512
N80 X103.94 Y62.484
N85 X104.152 Y62.471
N90 X104.364 Y62.474
N95 X104.575 Y62.492
N100 X104.785 Y62.525
N105 X104.991 Y62.574
N110 X105.194 Y62.637
N115 X105.391 Y62.714
N120 X105.583 Y62.806
N125 X105.767 Y62.911
N130 X105.943 Y63.029
N135 X106.11 Y63.16
N140 X106.268 Y63.302
N145 X106.414 Y63.455
N150 G3 X98.029 Y70.209 I-16.74 J-12.203
N155 G1 X100.689 Y66.048
N160 G2 X100.768 Y65.795 I-0.421 J-0.269
N165 G3 X102.559 Y62.985 I4.097 J0.635
N170 X103.554 Y62.89 I0.58 J0.815
N175 G1 X104.464 Y63.306
(TURN OFF CUTTING)
N180 M8
N185 G0 X111.15 Y70.424
(TURN ON CUTTING)
N190 M7
(POINT-PIERCE)
N195 G4 X5.
N200 G1 X110.417 Y69.743 F600
N205 G3 X110.124 Y68.787 I0.681 J-0.732
N210 X111.403 Y67.297 I15.975 J12.414
N215 X120.035 Y51.06 I150.964 J69.848
N220 G2 X123.711 Y40.56 I-29.035 J-16.057
N225 G1 X123.49 Y40.291
N230 X123.258 Y40.032
N235 X123.017 Y39.781
N240 X122.766 Y39.54
N245 X122.505 Y39.31
N250 X122.236 Y39.089
N255 X121.959 Y38.88
N260 X121.673 Y38.681
N265 X121.38 Y38.494
N270 X121.079 Y38.319
N275 X121.01 Y38.052
N280 X120.925 Y37.789
N285 X120.825 Y37.532
N290 X120.71 Y37.281
N295 X120.581 Y37.037
N300 X120.438 Y36.801
N305 X120.281 Y36.574
N310 X120.112 Y36.356
N315 X119.93 Y36.148
N320 X119.737 Y35.951
N325 X119.533 Y35.766
N330 X119.318 Y35.593
N335 X119.093 Y35.432
N340 X118.86 Y35.285
N345 X118.618 Y35.151
N350 X118.37 Y35.032
N355 X118.114 Y34.927
N360 X117.853 Y34.838
N365 X117.588 Y34.763
N370 X117.318 Y34.704
N375 X117.046 Y34.661
N380 X116.771 Y34.633
N385 X116.495 Y34.622
N390 X116.404 Y34.436
N395 X116.299 Y34.258
N400 X116.18 Y34.088
N405 X116.049 Y33.928
N410 X115.906 Y33.778
N415 X115.753 Y33.64
N420 X115.589 Y33.514
N425 X115.416 Y33.4
N430 X115.235 Y33.3
N435 X115.046 Y33.214
N440 X114.852 Y33.143
N445 X114.653 Y33.086
N450 X114.45 Y33.045
N455 X114.245 Y33.02
N460 X114.038 Y33.01
N465 X113.831 Y33.016
N470 X113.626 Y33.037
N475 X113.422 Y33.074
N480 X113.222 Y33.127
N485 X113.026 Y33.194
N490 X112.836 Y33.277
N495 X112.653 Y33.373
N500 X112.478 Y33.483
N505 X112.312 Y33.607
N510 G2 X108.111 Y35.601 I2.095 J9.835
N515 X107.978 Y36.248 I0.301 J0.399
N520 G3 X105.217 Y42.131 I-6.066 J0.743
N525 G1 X104.912 Y42.517
N530 X104.595 Y42.892
N535 X104.265 Y43.257
N540 X103.924 Y43.612
N545 X103.572 Y43.955
N550 X103.209 Y44.287
N555 X102.835 Y44.606
N560 X102.451 Y44.914
N565 X102.058 Y45.209
N570 X101.655 Y45.491
N575 X101.244 Y45.76
N580 X100.824 Y46.016
N585 X100.395 Y46.258
N590 X99.96 Y46.487
N595 X99.517 Y46.701
N600 X99.068 Y46.9
N605 X98.612 Y47.085
N610 X98.151 Y47.256
N615 X97.684 Y47.411
N620 X97.213 Y47.552
N625 X96.737 Y47.677
N630 X96.258 Y47.787
N635 X95.775 Y47.881
N640 X95.29 Y47.96
N645 X94.802 Y48.023
N650 X94.313 Y48.07
N655 X93.822 Y48.101
N660 X93.33 Y48.117
N665 X92.839
N670 X92.347 Y48.101
N675 X91.856 Y48.069
N680 G2 X85.929 Y51.738 I9.412 J21.826
N685 G3 X81.475 Y49.435 I-1.337 J-2.873
N690 X68.404 Y26.497 I154.408 J-103.182
N695 G2 X65.854 Y5.656 I-42.646 J-5.36
N700 X62.414 Y0.678 I-174.373 J116.826
N705 G1 X62.351 Y0.612
N710 X62.278 Y0.559
N715 X62.197 Y0.518
N720 X62.11 Y0.493
N725 X62.02 Y0.483
N730 X61.931 Y0.489
N735 X61.843 Y0.51
N740 X61.762 Y0.546
N745 X61.687 Y0.595
N750 X61.623 Y0.656
N755 X61.57 Y0.728
N760 X61.531 Y0.807
N765 X61.506 Y0.891
N770 X61.496 Y0.979
N775 X61.502 Y1.066
N780 X61.522 Y1.151
N785 X61.557 Y1.231
N790 G3 X57.559 Y20.876 I-12.418 J7.702
N795 X42.084 Y31.659 I-44.198 J-46.937
N800 X0.911 Y48.616 I-93.361 J-168.222
N805 G1 X0.842 Y48.632
N810 X0.776 Y48.661
N815 X0.715 Y48.701
N820 X0.662 Y48.753
N825 X0.618 Y48.814
N830 X0.585 Y48.883
N835 X0.564 Y48.958
N840 X0.557 Y49.036
N845 X0.565 Y49.116
N850 X0.587 Y49.194
N855 X0.622 Y49.267
N860 X0.671 Y49.335
N865 X0.732 Y49.393
N870 X0.804 Y49.439
N875 X0.883 Y49.473
N880 X0.969 Y49.493
N885 X1.057 Y49.497
N890 X1.391 Y49.458
N895 X1.722 Y49.424
N900 X2.055 Y49.393
N905 X2.388 Y49.366
N910 X2.723 Y49.343
N915 X3.058 Y49.324
N920 X3.394 Y49.308
N925 X3.731 Y49.296
N930 X4.069 Y49.289
N935 X4.408 Y49.285
N940 X4.747
N945 X5.088 Y49.29
N950 X5.43 Y49.299
N955 X5.772 Y49.312
N960 X6.116 Y49.329
N965 X6.461 Y49.351
N970 X6.806 Y49.378
N975 X7.153 Y49.409
N980 X7.501 Y49.445
N985 X7.851 Y49.485
N990 X8.201 Y49.53
N995 X8.553 Y49.58
N1000 X8.906 Y49.635
N1005 X9.26 Y49.694
N1010 X9.615 Y49.758
N1015 X9.972 Y49.826
N1020 X10.33 Y49.899
N1025 X10.689 Y49.976
N1030 X11.05 Y50.057
N1035 X11.411 Y50.143
N1040 X11.774 Y50.232
N1045 X12.154 Y50.331
N1050 X11.67 Y50.393
N1055 X11.188 Y50.471
N1060 X10.708 Y50.565
N1065 X10.232 Y50.675
N1070 X9.76 Y50.799
N1075 X9.292 Y50.939
N1080 X8.829 Y51.094
N1085 X8.371 Y51.263
N1090 X7.919 Y51.448
N1095 X7.473 Y51.647
N1100 X7.033 Y51.86
N1105 X6.601 Y52.088
N1110 X6.176 Y52.329
N1115 X5.759 Y52.584
N1120 X5.69 Y52.631
N1125 X5.629 Y52.69
N1130 X5.58 Y52.759
N1135 X5.543 Y52.835
N1140 X5.52 Y52.917
N1145 X5.512 Y53.002
N1150 X5.519 Y53.087
N1155 X5.54 Y53.17
N1160 X5.576 Y53.248
N1165 X5.624 Y53.319
N1170 X5.685 Y53.38
N1175 X5.755 Y53.43
N1180 X5.833 Y53.468
N1185 X5.917 Y53.491
N1190 X6.004 Y53.499
N1195 X6.091 Y53.492
N1200 G3 X16.053 Y53.582 I4.838 J15.872
N1205 X12.287 Y62.845 I-4.183 J3.697
N1210 X1.121 Y62.449 I-4.856 J-20.661
N1215 G1 X1.027 Y62.44
N1220 X0.934 Y62.447
N1225 X0.844 Y62.469
N1230 X0.759 Y62.505
N1235 X0.682 Y62.556
N1240 X0.615 Y62.617
N1245 X0.559 Y62.689
N1250 X0.517 Y62.768
N1255 X0.488 Y62.853
N1260 X0.475 Y62.941
N1265 X0.476 Y63.029
N1270 X0.491 Y63.115
N1275 X0.521 Y63.197
N1280 X0.564 Y63.272
N1285 X0.618 Y63.339
N1290 X0.682 Y63.395
N1295 X0.754 Y63.439
N1300 X0.832 Y63.471
N1305 G2 X26.21 Y63.705 I12.961 J-29.266
N1310 G3 X35.912 Y63.019 I6.353 J20.883
N1315 X38.669 Y65.588 I0.086 J2.671
N1320 X30.59 Y67.192 I-4.572 J-1.88
N1325 G1 X30.512 Y67.139
N1330 X30.428 Y67.098
N1335 X30.339 Y67.071
N1340 X30.248 Y67.058
N1345 X30.158 Y67.06
N1350 X30.069 Y67.074
N1355 X29.985 Y67.102
N1360 X29.907 Y67.142
N1365 X29.837 Y67.193
N1370 X29.776 Y67.254
N1375 X29.725 Y67.322
N1380 X29.686 Y67.396
N1385 X29.66 Y67.474
N1390 X29.645 Y67.555
N1395 X29.643 Y67.636
N1400 X29.654 Y67.715
N1405 X29.676 Y67.791
N1410 X29.709 Y67.862
N1415 X29.752 Y67.926
N1420 G2 X43.011 Y72.312 I10.339 J-9.021
N1425 G1 X43.409 Y72.481
N1430 X43.777 Y72.466
N1435 X44.156 Y72.454
N1440 X44.546 Y72.444
N1445 X44.947 Y72.438
N1450 X45.356 Y72.437
N1455 X45.774 Y72.441
N1460 X46.199 Y72.451
N1465 X46.63 Y72.466
N1470 X47.065 Y72.489
N1475 X47.502 Y72.518
N1480 X47.939 Y72.555
N1485 X48.376 Y72.599
N1490 X48.81 Y72.651
N1495 X49.24 Y72.711
N1500 X49.665 Y72.779
N1505 X50.084 Y72.854
N1510 X50.495 Y72.937
N1515 X50.898 Y73.028
N1520 X51.292 Y73.126
N1525 X51.677 Y73.231
N1530 X52.053 Y73.342
N1535 X52.42 Y73.459
N1540 X52.776 Y73.582
N1545 X53.045 Y73.682
N1550 G2 X36.512 Y80.128 I-1.863 J19.647
N1555 X33.639 Y82.654 I7.401 J11.314
N1560 X34.341 Y83.366 I0.361 J0.346
N1565 G1 X34.745 Y83.032
N1570 X35.159 Y82.71
N1575 X35.582 Y82.401
N1580 X36.015 Y82.105
N1585 X36.456 Y81.822
N1590 X36.905 Y81.553
N1595 X37.363 Y81.297
N1600 X37.827 Y81.054
N1605 X38.299 Y80.826
N1610 X38.777 Y80.612
N1615 X39.262 Y80.413
N1620 X39.752 Y80.228
N1625 X40.248 Y80.057
N1630 X40.749 Y79.902
N1635 X41.254 Y79.762
N1640 X41.763 Y79.637
N1645 X42.275 Y79.528
N1650 X42.791 Y79.433
N1655 X43.309 Y79.355
N1660 X43.829 Y79.291
N1665 X44.351 Y79.244
N1670 X44.874 Y79.212
N1675 X45.398 Y79.196
N1680 X45.922 Y79.195
N1685 X46.446 Y79.21
N1690 X46.969 Y79.241
N1695 X47.491 Y79.288
N1700 X48.011 Y79.35
N1705 X48.529 Y79.428
N1710 X49.045 Y79.521
N1715 X49.558 Y79.63
N1720 X50.067 Y79.754
N1725 X50.572 Y79.893
N1730 X51.073 Y80.047
N1735 X51.569 Y80.216
N1740 X52.06 Y80.4
N1745 X52.545 Y80.599
N1750 X53.024 Y80.812
N1755 X53.123 Y80.948
N1760 X53.21 Y81.092
N1765 X53.284 Y81.243
N1770 X53.343 Y81.401
N1775 X53.388 Y81.563
N1780 X53.418 Y81.729
N1785 X53.433 Y81.896
N1790 Y82.065
N1795 X53.417 Y82.232
N1800 X53.386 Y82.398
N1805 X53.341 Y82.56
N1810 X53.281 Y82.717
N1815 X53.207 Y82.868
N1820 X53.119 Y83.012
N1825 X53.019 Y83.147
N1830 X52.907 Y83.273
N1835 X52.784 Y83.388
N1840 X52.652 Y83.491
N1845 X52.51 Y83.582
N1850 X52.361 Y83.66
N1855 X52.205 Y83.724
N1860 X52.044 Y83.773
N1865 X51.88 Y83.808
N1870 X51.713 Y83.828
N1875 X51.544 Y83.832
N1880 X51.376 Y83.821
N1885 X51.21 Y83.795
N1890 X51.047 Y83.754
N1895 X50.888 Y83.699
N1900 X50.735 Y83.629
N1905 X50.589 Y83.546
N1910 X50.451 Y83.45
N1915 X50.322 Y83.341
N1920 X50.204 Y83.222
N1925 X49.883 Y83.228
N1930 X49.645 Y83.151
N1935 X49.403 Y83.074
N1940 G2 X48.865 Y83.868 I-0.152 J0.476
N1945 X59.844 Y86.997 I8.144 J-7.752
N1950 G1 X60.471 Y87.111
N1955 X61.046 Y87.036
N1960 X61.61 Y86.953
N1965 X62.161 Y86.864
N1970 X62.692 Y86.773
N1975 X63.201 Y86.684
N1980 X63.681 Y86.6
N1985 X64.128 Y86.526
N1990 G3 X65.704 Y86.503 I0.809 J1.38
N1995 X42.206 Y88.025 I-12.561 J-11.776
N2000 G1 X41.286 Y87.59
N2005 G2 X40.585 Y88.279 I-0.286 J0.41
N2010 X65.814 Y94.167 I15.977 J-11.464
N2015 G1 X69.833 Y92.655
N2020 X73.857 Y91.156
N2025 X77.886 Y89.671
N2030 X81.92 Y88.199
N2035 G3 X85.045 Y89.179 I1.087 J2.006
N2040 X80.95 Y91.621 I-3.938 J-1.95
N2045 X78.036 Y92.134 I-12.819 J-64.212
N2050 G2 X78.052 Y93.125 I0.078 J0.494
N2055 X91.808 Y87.888 I2.342 J-14.534
N2060 G1 X91.998 Y87.841
N2065 X92.192 Y87.808
N2070 X92.387 Y87.79
N2075 X92.584 Y87.787
N2080 X92.779 Y87.799
N2085 X92.974 Y87.825
N2090 X93.166 Y87.867
N2095 X93.354 Y87.923
N2100 X93.537 Y87.993
N2105 X93.715 Y88.076
N2110 X93.885 Y88.173
N2115 X94.048 Y88.283
N2120 X94.202 Y88.404
N2125 X94.346 Y88.537
N2130 X94.48 Y88.681
N2135 X94.602 Y88.834
N2140 X94.713 Y88.996
N2145 X94.811 Y89.166
N2150 X94.895 Y89.343
N2155 X94.966 Y89.525
N2160 X95.023 Y89.713
N2165 X95.066 Y89.904
N2170 G2 X98.923 Y94.144 I67.81 J-57.814
N2175 G1 X99.014 Y94.148
N2180 X99.101 Y94.139
N2185 X99.182 Y94.116
N2190 X99.256 Y94.082
N2195 X99.306 Y94.069
N2200 G2 X99.597 Y93.871 I-0.118 J-0.486
N2205 X99.133 Y90.696 I-4.264 J-0.998
N2210 G1 X99.077 Y90.404
N2215 X99.026 Y90.109
N2220 X98.981 Y89.812
N2225 X98.942 Y89.514
N2230 X98.911 Y89.215
N2235 X98.887 Y88.917
N2240 X98.871 Y88.62
N2245 X98.862 Y88.323
N2250 Y88.028
N2255 X98.871 Y87.734
N2260 X98.887 Y87.442
N2265 X98.912 Y87.151
N2270 G3 X103.586 Y92.146 I-19.223 J22.67
N2275 G1 X103.645 Y92.211
N2280 X103.714 Y92.265
N2285 X103.791 Y92.306
N2290 X103.875 Y92.332
N2295 X103.962 Y92.344
N2300 X104.049 Y92.341
N2305 X104.135 Y92.322
N2310 X104.216 Y92.289
N2315 X104.29 Y92.242
N2320 X104.355 Y92.184
N2325 X104.408 Y92.114
N2330 X104.449 Y92.037
N2335 X104.475 Y91.954
N2340 X104.487 Y91.867
N2345 X104.483 Y91.78
N2350 X104.465 Y91.694
N2355 X104.431 Y91.614
N2360 G3 X102.041 Y78.249 I13.96 J-9.392
N2365 G2 X110.124 Y68.787 I-26.936 J-31.193
N2370 G3 X110.805 Y68.055 I0.975 J0.224
N2375 G1 X111.761 Y67.762
(TURN OFF CUTTING)
N2380 M8

N2385 M19
N2390 M30
