(1015)
(Machine)
(  vendor: Autodesk)
(  description: Generic Cutting Machine)
N10 G90
N15 G21

(Inner lines)
N20 M36 T1
(Through cutting)

N25 G0 X11 Y92.5
(TURN ON CUTTING)
N30 M7
(POINT-PIERCE)
N35 G1 Y91 F600
N40 X41
(TURN OFF CUTTING)
N45 M8
N50 G0 X12.5 Y81
(TURN ON CUTTING)
N55 M7
(POINT-PIERCE)
N60 G1 X11 F600
N65 Y61
(TURN OFF CUTTING)
N70 M8
N75 G0 X21 Y82.5
(TURN ON CUTTING)
N80 M7
(POINT-PIERCE)
N85 G1 Y81 F600
N90 X51
N95 Y91
(TURN OFF CUTTING)
N100 M8
N105 G0 Y79.5
(TURN ON CUTTING)
N110 M7
(POINT-PIERCE)
N115 G1 Y81 F600
N120 X81
(TURN OFF CUTTING)
N125 M8
N130 G0 X61 Y92.5
(TURN ON CUTTING)
N135 M7
(POINT-PIERCE)
N140 G1 Y91 F600
N145 X91
(TURN OFF CUTTING)
N150 M8
N155 G0 X89.5 Y61
(TURN ON CUTTING)
N160 M7
(POINT-PIERCE)
N165 G1 X91 F600
N170 Y81
(TURN OFF CUTTING)
N175 M8
N180 G0 X79.5 Y51
(TURN ON CUTTING)
N185 M7
(POINT-PIERCE)
N190 G1 X81 F600
N195 Y71
(TURN OFF CUTTING)
N200 M8
N205 G0 X69.5 Y41
(TURN ON CUTTING)
N210 M7
(POINT-PIERCE)
N215 G1 X71 F600
N220 Y61
(TURN OFF CUTTING)
N225 M8
N230 G0 X59.5 Y31
(TURN ON CUTTING)
N235 M7
(POINT-PIERCE)
N240 G1 X61 F600
N245 Y51
(TURN OFF CUTTING)
N250 M8
N255 G0 X52.5
(TURN ON CUTTING)
N260 M7
(POINT-PIERCE)
N265 G1 X51 F600
N270 Y21
(TURN OFF CUTTING)
N275 M8
N280 G0 X42.5 Y51
(TURN ON CUTTING)
N285 M7
(POINT-PIERCE)
N290 G1 X41 F600
N295 Y31
(TURN OFF CUTTING)
N300 M8
N305 G0 Y62.5
(TURN ON CUTTING)
N310 M7
(POINT-PIERCE)
N315 G1 Y61 F600
N320 X61
(TURN OFF CUTTING)
N325 M8
N330 G0 X32.5
(TURN ON CUTTING)
N335 M7
(POINT-PIERCE)
N340 G1 X31 F600
N345 Y41
(TURN OFF CUTTING)
N350 M8
N355 G0 Y72.5
(TURN ON CUTTING)
N360 M7
(POINT-PIERCE)
N365 G1 Y71 F600
N370 X71
(TURN OFF CUTTING)
N375 M8
N380 G0 X22.5
(TURN ON CUTTING)
N385 M7
(POINT-PIERCE)
N390 G1 X21 F600
N395 Y51
(TURN OFF CUTTING)
N400 M8
N405 G0 X12.5
(TURN ON CUTTING)
N410 M7
(POINT-PIERCE)
N415 G1 X11 F600
N420 Y41
N425 X21
N430 Y31
N435 X31
N440 Y21
N445 X41
N450 Y11
N455 X61
N460 Y21
N465 X71
N470 Y31
N475 X81
N480 Y41
N485 X91
N490 Y51
(TURN OFF CUTTING)
N495 M8

(Contour)
N500 G0 X1 Y101
(TURN ON CUTTING)
N505 M7
(POINT-PIERCE)
N510 G1 X101 F600
N515 Y1
N520 X1
N525 Y101
(TURN OFF CUTTING)
N530 M8

N535 M19
N540 M30
