(1017)
(Machine)
(  vendor: Autodesk)
(  description: Generic Cutting Machine)
N10 G90
N15 G21

(2D Profile14)
N20 M36 T1
(Through cutting)

N25 G0 X11 Y41
(TURN ON CUTTING)
N30 M7
(POINT-PIERCE)
N35 G1 Y11 F600
N40 X41
N45 Y41
N50 X11
(TURN OFF CUTTING)
N55 M8
N60 G0 X48.5
(TURN ON CUTTING)
N65 M7
(POINT-PIERCE)
N70 G1 Y11 F600
N75 X78.5
N80 Y41
N85 X48.5
(TURN OFF CUTTING)
N90 M8
N95 G0 X86
(TURN ON CUTTING)
N100 M7
(POINT-PIERCE)
N105 G1 Y11 F600
N110 X116
N115 Y41
N120 X86
(TURN OFF CUTTING)
N125 M8
N130 G0 X1 Y51
(TURN ON CUTTING)
N135 M7
(POINT-PIERCE)
N140 G1 X126 F600
N145 Y1
N150 X1
N155 Y51
(TURN OFF CUTTING)
N160 M8

N165 M19
N170 M30
